!!!!SEGMENT: pl-wtm--r-1740-m--001-006_moniuszko-stanislaw--sonety-krymskie-ruiny.krn
!!!cenid: 18xx:2913
!!!COM: Moniuszko, Stanisław
!!!COM-rism: pe30008351
!!!CDT: 1819/05/05-1872/06/04
!!!CNT: Polish
!!!OTL: Sonety krymskie – Ruiny
!!!PDT:
!!!AGN: Secular
!!!SMS-siglum: PL-Wtm
!!!SMS-shelfmark: R 1740/M
!!!NIFC-rismID: 1001096348
!!!URL-scan: http://repozytorium.nifc.pl/skany/pl-wtm-nut--r1740m
!!!ONB-nifc: UWAGA: w zbiorze 2 aranżacje Sonetów. Pliki nr 001-001-010 w obsadzie vl (2), vla, vlc,
!!!SMS-variant:
!!!SMS-altvar:
**kern	**dynam	**kern	**dynam	**kern	**dynam	**kern	**dynam	**kern	**dynam	**kern	**kern	**dynam	**kern	**kern	**dynam	**kern	**kern	**dynam
*	*	*	*	*	*	*	*	*	*	*group1	*group1	*group1	*group1	*group1	*group1	*	*	*
*part8	*part8	*part7	*part7	*part6	*part6	*part5	*part5	*part4	*part4	*part3	*part3	*part3	*part2	*part2	*part2	*part1	*part1	*part1
*staff11	*	*staff10	*	*staff9	*	*staff8	*	*staff7	*	*staff6	*staff5	*	*staff4	*staff3	*	*staff2	*staff1	*
*I"[CB.]	*	*I"[Violon]	*	*I"[Vlc.]	*	*I"[V. 2.]	*	*I"V. I.	*	*I""[Fortepiano.]	*	*	*	*	*	*I"[Physharmonica.]	*I"[Physharmonica.]	*
*clefF4	*	*clefF4	*	*clefC3	*	*clefG2	*	*clefG2	*	*clefF4	*clefF4	*	*clefG2	*clefG2	*	*clefF4	*clefG2	*
*Trd0c0	*	*	*	*	*	*	*	*	*	*	*	*	*	*	*	*	*	*
*k[b-e-a-d-]	*	*k[b-e-a-d-]	*	*k[b-e-a-d-]	*	*k[b-e-a-d-]	*	*k[b-e-a-d-]	*	*k[b-e-a-d-]	*k[b-e-a-d-]	*	*k[b-e-a-d-]	*k[b-e-a-d-]	*	*k[b-e-a-d-]	*k[b-e-a-d-]	*
*M4/4	*	*M4/4	*	*M4/4	*	*M4/4	*	*M4/4	*	*M4/4	*M4/4	*	*M4/4	*M4/4	*	*M4/4	*M4/4	*
*met(c)	*	*met(c)	*	*met(c)	*	*met(c)	*	*met(c)	*	*met(c)	*met(c)	*	*met(c)	*met(c)	*	*met(c)	*met(c)	*
=1	=1	=1	=1	=1	=1	=1	=1	=1	=1	=1	=1	=1	=1	=1	=1	=1	=1	=1
*2\right	*	*2\right	*	*2\right	*	*2\right	*	*2\right	*	*2\right	*2\right	*	*2\right	*2\right	*	*2\right	*2\right	*
*	*	*	*	*	*	*	*	*	*	*	*ped	*	*	*ped	*	*	*	*
!	!	!	!	!	!	!	!	!	!	!	!	!	!	!	!	!	!LO:TX:Bi:a:t=Kwartet:color=blue	!
!	!	!	!	!	!	!	!	!	!	!	!	!	!	!	!	!	!LO:TX:b:t=(&colon;8&colon;)	!
!	!	!	!	!	!	!	!	!	!	!	!	!	!	!	!	!	!LO:TX:i:a:t=No 5. Largo.	!
!	!LO:DY:b:t=pp.:rj	!	!LO:DY:b:t=pp.:rj	!	!	!	!	!	!	!	!	!	!	!	!	!	!LO:TX:t=P:problem:nazwy instrumentów spisane z części pierwszej zbioru (skan 0003), oprócz "V. I."	!
!	!	!	!	!	!	!	!	!	!	!	!	!	!	!	!	!	!LO:TX:t=P:problem:all\right:global	!
[>1FF	pp	[>1FF	pp	1r	.	1r	.	1r	.	1r	2r	.	1r	2r	.	2r	1r	.
!	!	!	!	!	!	!	!	!	!	!	!	!LO:DY:b:t=pp.:rj	!	!	!LO:DY:b:t=pp.:rj	!	!	!LO:DY:b
.	.	.	.	.	.	.	.	.	.	.	2c 2F^>\	pp	.	2cc 2f^</	pp	[>2c [>2F^>\	.	pp
=2	=2	=2	=2	=2	=2	=2	=2	=2	=2	=2	=2	=2	=2	=2	=2	=2	=2	=2
4FF/]	.	4FF/]	.	1r	.	1r	.	2r	.	1r	2c 2F^>\	.	1ryy	2cc 2f^</	.	2c] 2F^>\]	1r	.
*	*	*	*	*	*	*	*	*	*	*	*	*	*	*Xped	*	*	*	*
4r	.	4r	.	.	.	.	.	.	.	.	.	.	.	.	.	.	.	.
!	!	!LO:TX:a:t=(x)	!	!	!	!	!	!	!LO:DY:b:rj	!	!	!	!	!	!	!	!	!
2r	.	2r	.	.	.	.	.	4.cc\	p	.	2r	.	.	2r	.	2r	.	.
.	.	.	.	.	.	.	.	8a-/	.	.	.	.	.	.	.	.	.	.
*	*	*	*	*	*	*	*	*	*	*	*	*	*	*	*	*	*clefF4	*
=3	=3	=3	=3	=3	=3	=3	=3	=3	=3	=3	=3	=3	=3	=3	=3	=3	=3	=3
!	!	!LO:TX:a:t=Vcelli\n(x)	!LO:DY:b:rj	!	!	!	!	!	!	!	!	!LO:DY:b:rj	!	!	!	!	!	!LO:DY:b:rj
!	!	!LO:TX:a:t=P:problem:nuty w takcie wykreślone i wpisane pod nutami	!	!	!	!	!	!	!	!	!	!	!	!	!	!	!	!
1r	.	(>8fL 8A-\	p	(>8c/L	.	1r	.	4f/	.	1r	(>8cL 8A-\	p	1r	1r	.	(>8A-\L	(>8c\L	p
.	.	8e- 8G\	.	8B-/	.	.	.	.	.	.	8B- 8G\	.	.	.	.	8G\	8B-\	.
.	.	8d- 8F\L	.	8A-/L	.	.	.	8.f/L	.	.	8A- 8F\L	.	.	.	.	8F\L	8A-\L	.
.	.	8cJ 8E-\J	.	8G/JJ	.	.	.	.	.	.	8GJ 8E-\J	.	.	.	.	8E-\JJ	8G\JJ	.
.	.	.	.	.	.	.	.	16f/Jk	.	.	.	.	.	.	.	.	.	.
.	.	8B-L 8D-\	.	8F/L	.	.	.	4.f/	.	.	8FL 8D-/	.	.	.	.	8D-/L	8F/L	.
.	.	8A- 8C\	.	8E-/	.	.	.	.	.	.	8E- 8C/	.	.	.	.	8C/	8E-/	.
.	.	8G 8BB-\L	.	8D-/L	.	.	.	.	.	.	8D- 8BB-/L	.	.	.	.	8BB-/L	8D-/L	.
.	.	8FJ 8AA-\)J	.	8C/J)J	.	.	.	8f/	.	.	8CJ 8AA-/)J	.	.	.	.	8AA-/JJ	8C/JJ	.
=4	=4	=4	=4	=4	=4	=4	=4	=4	=4	=4	=4	=4	=4	=4	=4	=4	=4	=4
!LO:TX:b:B:t=C=:color=red	!	!	!	!	!	!	!	!	!	!	!	!	!	!	!	!	!	!
!LO:TX:b:t=pizzi.:rj	!LO:DY:b:t=pp.	!	!	!	!LO:DY:b:rj	!	!LO:DY:b:rj	!LO:TX:a:B:t=C=:color=red	!	!	!	!	!	!	!	!	!LO:TX:a:B:t=C=:color=red	!
8BB-/L	pp	8BB-'</L	.	4F/	p	4d-/	p	4g/	.	1r	8F 8FF/	.	1r	1r	.	8BB-/)	8F\)	.
8C/J	.	8C'</J	.	.	.	.	.	.	.	.	8r	.	.	.	.	8r	8r	.
8D-/L	.	8D-^</L	.	8.F/L	.	8.B-/L	.	8.f/L	.	.	4r	.	.	.	.	4r	4r	.
16C/L	.	16C'</L	.	.	.	.	.	.	.	.	.	.	.	.	.	.	.	.
16BB-/JJ	.	16BB-'</JJ	.	16F/Jk	.	16d-/Jk	.	16g/Jk	.	.	.	.	.	.	.	.	.	.
8FF/L	.	8FF'</L	.	(<4F/	.	(<4f/	.	(<4a-/	.	.	2r	.	.	.	.	2r	2r	.
8C/	.	(<8C/	.	.	.	.	.	.	.	.	.	.	.	.	.	.	.	.
8F/L	.	8F'</)L	.	8c'</L)	.	8f'</L	.	8a-'</L	.	.	.	.	.	.	.	.	.	.
8E-/JJ	.	8E-'</JJ	.	8c/J	.	8a-'</J)	.	8a-'</J)	.	.	.	.	.	.	.	.	.	.
!!LO:PB:g=original
=5	=5	=5	=5	=5	=5	=5	=5	=5	=5	=5	=5	=5	=5	=5	=5	=5	=5	=5
!LO:TX:t=P:problem: t. 5-6 (fragment) odwołanie do partii Violon	!	!	!	!	!	!	!	!	!	!	!	!	!	!	!	!	!	!
8D-'</Lyy	.	8D-'</L	.	4f\	.	4a-/	.	4b-\	.	1ryy	1ryy	.	1ryy	1ryy	.	2r	2r	.
8BB-'</yy	.	8BB-'</	.	.	.	.	.	.	.	.	.	.	.	.	.	.	.	.
!	!	!	!	!LO:TX:b:t=cres. _:problem:dynamics with extention lines 	!LO:HP:i:b:t=cres.	!	!	!LO:TX:b:t=cres. _:problem:dynamics with extention lines	!LO:HP:i:b:t=cres.:ext=ut	!	!	!	!	!	!	!	!	!
8E-'</Lyy	.	8E-'</L	.	8e-'>\L	<	8g'</L	.	8b-'>\L	<	.	.	.	.	.	.	.	.	.
8E-'</JJyy	.	8E-'</JJ	.	8e-'>\J	.	16f/L	.	16a-\L	.	.	.	.	.	.	.	.	.	.
.	.	.	.	.	.	16g/JJ	.	16b-\JJ	.	.	.	.	.	.	.	.	.	.
8AA-'</Lyy	.	8AA-'</L	.	4e-\	.	(>4b-\	.	4cc\	[	.	.	.	.	.	.	4r	4r	.
8E-'</yy	.	8E-'</	.	.	.	.	.	.	.	.	.	.	.	.	.	.	.	.
8A-'</Lyy	.	8A-'</L	.	8e-\L	[	8a-'>\)	.	8cc\	.	.	.	.	.	.	.	8r	8r	.
8F'</JJyy	.	8F'</JJ	.	8f'>\J	.	8a-'>\	.	16cc\LL	.	.	.	.	.	.	.	8A-\	16c\LL	.
!	!	!	!	!	!	!	!	!	!	!	!	!	!	!	!	!	!	!LO:DY:b
.	.	.	.	.	.	.	.	16ddn\JJ	.	.	.	.	.	.	.	.	16dn\JJ	p
=6	=6	=6	=6	=6	=6	=6	=6	=6	=6	=6	=6	=6	=6	=6	=6	=6	=6	=6
!LO:TX:t=P:problem:mixed beam	!	!LO:TX:t=P:problem:mixed beam	!	!	!LO:DY:b	!	!	!	!LO:DY:b	!	!	!	!	!	!	!	!	!
8C'</Lyy	.	8C'</L	.	(<8e-'>\L	.	(<8g/L	mf	(>8ee-'>\L	mf	1ryy	1ryy	.	1ryy	1ryy	.	(>8G\L	(>8e-\L	.
8Fn'>\yy	.	8Fn'>\	.	8a-'>\	.	8f'</	.	8ddn'>\	.	.	.	.	.	.	.	8F\	8dn\	.
8G'>\Lyy	.	8G'>\L	.	8g'>\L	.	8e-'</L	.	8cc'>\L	.	.	.	.	.	.	.	8E-\L	8c\L	.
8GG'</JJyy	.	8GG'</JJ	.	8f'>\J)J	.	8d-/J)J	.	8bn'>\J)J	.	.	.	.	.	.	.	8D-X\JJ	8Bn\JJ	.
!	!	!	!	!LO:TX:t=P:problem:mixed beam	!	!	!	!	!	!	!	!	!	!	!	!	!	!
8C'>\Lyy	.	8C'>\L	.	8e-'>\L	.	4c/	.	4cc\	.	.	.	.	.	.	.	4.C/)	4.c\)	.
8G'>\yy	.	8G'>\	.	8G'</	.	.	.	.	.	.	.	.	.	.	.	.	.	.
8c\J	.	8c'>\J	.	8c'</J	.	8r	.	8.ee-^>\L	.	.	.	.	.	.	.	.	.	.
8r	.	8r	.	8e-'>\	.	8e-'</	.	.	.	.	.	.	.	.	.	8ryy	8r	.
.	.	.	.	.	.	.	.	16cc\Jk	.	.	.	.	.	.	.	.	.	.
=7	=7	=7	=7	=7	=7	=7	=7	=7	=7	=7	=7	=7	=7	=7	=7	=7	=7	=7
1r	.	(>8e-L 8c\	.	(>8a-\L	.	(<8a-/L	.	4a-/	.	1r	(>8e-L 8c\	.	1ryy	1ryy	.	(>8c\L	(>8e-\L	.
.	.	8d-X 8B-\	.	8g\	.	8g/	.	.	.	.	8d-X 8B-\	.	.	.	.	8B-\	8d-X\	.
.	.	8c 8A-\L	.	8f\L	.	8f/L	.	8.a-/L	.	.	8c 8A-\L	.	.	.	.	8A-\L	8c\L	.
.	.	8B-J 8G\J	.	8e-\JJ	.	8e-/JJ	.	.	.	.	8B-J 8G\J	.	.	.	.	8G\JJ	8B-\JJ	.
.	.	.	.	.	.	.	.	16a-/Jk	.	.	.	.	.	.	.	.	.	.
.	.	8A-L 8F\	.	8d-\L	.	8d-/L	.	4.a-/	.	.	8A-L 8F\	.	.	.	.	8F\L	8A-\L	.
.	.	8G 8E-\	.	8c\	.	8c/	.	.	.	.	8G 8E-\	.	.	.	.	8E-\	8G\	.
.	.	8F 8D-\L	.	8B-\L	.	8B-/L	.	.	.	.	8F 8D-\L	.	.	.	.	8D-\L	8F\L	.
.	.	8E-J 8C\)J	.	8A-\J)J	.	8A-/J)J	.	8a-/	.	.	8E-J 8C\)J	.	.	.	.	8C\J)J	8E-\J)J	.
=8	=8	=8	=8	=8	=8	=8	=8	=8	=8	=8	=8	=8	=8	=8	=8	=8	=8	=8
*	*	*	*	*	*	*	*	*	*	*	*^	*	*	*	*	*	*	*
8BB-/L	.	8BB-^</L	.	4A-^</	.	4f^</	.	4dd-^>\	.	4r	(>4F/	8FL 8BB-\	.	1ryy	1ryy	.	8F\	8A-\	.
!	!	!	!LO:DY:b:rj	!	!	!	!	!	!	!	!	!	!	!	!	!	!	!	!
16C/L	.	16C'</L	p	.	.	.	.	.	.	.	.	16C\L	.	.	.	.	8r	8r	.
16D-/JJ	.	16D-'</JJ	.	.	.	.	.	.	.	.	.	16D-\JJ	.	.	.	.	.	.	.
!	!	!LO:TX:t=P:problem:mixed beam	!	!	!	!	!	!	!	!	!	!	!	!	!	!	!	!	!
8E-\L	.	8E-\L	.	8A-'</L	.	8e-'</L	.	8cc'>\L	.	8r	8E-/L)	8E-\	.	.	.	.	4r	4r	.
8E-\J	.	8EE-/J	.	8d-'</J	.	8g'</J	.	8b-'>\J	.	8EE-'</	8E-'</J	8ryy	.	.	.	.	.	.	.
!	!	!LO:TX:t=P:problem:mixed beam	!	!	!	!	!	!	!	!	!	!	!	!	!	!	!	!	!
8AA-/	.	8AA-'</L	.	(>4c\	.	4a-/	.	4.cc\	.	8AA-'</	2r	2ryy	.	.	.	.	2r	2r	.
8r	.	8E-'>\	.	.	.	.	.	.	.	8r	.	.	.	.	.	.	.	.	.
8r	.	8A-'>\J	.	8e-\)	.	8a-/	.	.	.	4r	.	.	.	.	.	.	.	.	.
8A-\	.	8r	.	8c\	.	8a-/	.	(>16cc\LL	.	.	.	.	.	.	.	.	.	.	.
.	.	.	.	.	.	.	.	16ee-\JJ)	.	.	.	.	.	.	.	.	.	.	.
*	*	*	*	*	*	*	*	*	*	*	*v	*v	*	*	*	*	*	*	*
!!LO:PB:g=original
=9	=9	=9	=9	=9	=9	=9	=9	=9	=9	=9	=9	=9	=9	=9	=9	=9	=9	=9
!	!	!LO:TX:b:t=pizzi	!	!	!	!	!	!	!	!	!	!	!	!	!	!	!	!
8E-\	.	8r	.	8.B-^</L	.	8.g^</L	.	8.ee-L 8.e-^</	.	1ryy	1ryy	.	1ryy	1ryy	.	1ryy	1ryy	.
8r	.	8BB-/L	.	.	.	.	.	.	.	.	.	.	.	.	.	.	.	.
.	.	.	.	16B-/K	.	16g/K	.	16b-K 16e-/	.	.	.	.	.	.	.	.	.	.
8r	.	8E-/J	.	8B-/L	.	8g/L	.	8b- 8e-'</L	.	.	.	.	.	.	.	.	.	.
8E-\	.	8r	.	8c/JJ	.	8gJ 8G/J	.	8ccJ 8e-'</J	.	.	.	.	.	.	.	.	.	.
8F\	.	8r	.	8c'</L	.	4.f 4.A-/	.	4.a-/	.	.	.	.	.	.	.	.	.	.
8r	.	8C\L	.	8C'</	.	.	.	.	.	.	.	.	.	.	.	.	.	.
8r	.	8E-\L	.	8F/J	.	.	.	.	.	.	.	.	.	.	.	.	.	.
8D-\	.	8D-\JJ	.	8A-/	.	8f/	.	16.a-/LL	.	.	.	.	.	.	.	.	.	.
.	.	.	.	.	.	.	.	32cc/JJk	.	.	.	.	.	.	.	.	.	.
=10	=10	=10	=10	=10	=10	=10	=10	=10	=10	=10	=10	=10	=10	=10	=10	=10	=10	=10
8C\	.	8C/L	.	4A-/	.	4f/	.	4cc\	.	2r	2r	.	2r	2r	.	2r	2r	.
8r	.	8C/J	.	.	.	.	.	.	.	.	.	.	.	.	.	.	.	.
8C\	.	8r	.	4B-/	.	4en/	.	8.g/L	.	.	.	.	.	.	.	.	.	.
8r	.	8C/	.	.	.	.	.	.	.	.	.	.	.	.	.	.	.	.
.	.	.	.	.	.	.	.	16a-/Jk	.	.	.	.	.	.	.	.	.	.
*	*	*	*	*	*	*	*	*	*	*	*ped	*	*	*	*	*	*	*
8F\	.	8r	.	4A-/	.	4f/	.	4f/	.	4r	4r	.	4r	4r	.	4r	4r	.
8r	.	8C\L	.	.	.	.	.	.	.	.	.	.	.	.	.	.	.	.
!LO:TX:a:t=arco	!LO:DY:b:rj	!	!	!	!	!	!	!	!	!	!	!	!	!	!	!	!LO:TX:a:t=(&colon;Gr. j&colon;)	!
*	*	*	*	*	*	*	*	*	*	*	*	*	*	*ped	*	*	*	*
8r	ff	8F\J	.	8r	.	8r	.	8r	.	8r	8r	.	8r	8r	.	8r	8r	.
!	!	!	!	!	!	!	!	!	!	!	!	!	!LO:CL:ed	!	!	!	!	!
*	*	*	*	*	*	*	*	*	*	*	*	*	*clefF4	*	*	*	*clefG2	*
!	!	!LO:TX:a:t=arco	!LO:DY:b:rj	!	!LO:DY:b:rj	!	!LO:DY:b:rj	!	!LO:DY:b:rj	!	!	!LO:DY:b:rj	!	!	!LO:DY:b:rj	!	!	!LO:DY:b:rj
8C|</	.	8C 8CC/	ff	16.fLL 16.A-\	ff	16.a-LL 16.c/	ff	16.cc\LL	ff	8CC/	8C|</	ff	16.cLL 16.A-\	16.ccLL 16.a- 16.f\	ff	16.FLL 16.C/	16.ccLL 16.a- 16.f\	ff
.	.	.	.	32fJJk 32A-\	.	32a-JJk 32c/	.	32ff\JJk	.	.	.	.	32cJJk 32A-\	32ffJJk 32a- 32f\	.	32FJJk 32FF/	32ffJJk 32a- 32f\	.
=11	=11	=11	=11	=11	=11	=11	=11	=11	=11	=11	=11	=11	=11	=11	=11	=11	=11	=11
*	*	*	*	*	*	*	*	*2\right	*	*	*	*	*	*	*	*	*	*
!	!LO:DY:b:t=sffp.:rj	!	!	!	!	!	!	!	!LO:DY:b:t=sffp.	!LO:N:vis=2	!	!	!	!	!	!	!	!
1FF	sffp	8FF/L	.	8f 8A-\	.	2.a- 2.c/	.	[>2.ff\	sffp	2.FFF/	8FF/L	.	4.c 4.A-\	4.ff 4.a- 4.f\	.	4.F 4.FF/	4.ff 4.a- 4.f\	.
!	!	!	!	!	!LO:DY:a:t=sffp.:rj	!	!	!	!	!	!	!	!	!	!	!	!	!
.	.	8C^</	.	8C^</L	sffp	.	.	.	.	.	8C 8CC^</	.	.	.	.	.	.	.
.	.	8F^</J	.	8F^</J	.	.	.	.	.	.	8FJ 8FF^</	.	.	.	.	.	.	.
!	!	!	!	!	!LO:DY:b:rj	!	!	!	!	!	!	!LO:DY:b:t=pp.	!	!	!LO:DY:b:rj	!	!	!
.	.	8r	.	8C/	p	.	.	.	.	.	16.C/LL	pp	16.cLL 16.G\	16.ccLL 16.a- 16.f\	pp	8r	8r	.
.	.	.	.	.	.	.	.	.	.	.	32FF/JJk	.	32cJJk 32G\	32ffJJk 32a- 32f\	.	.	.	.
!	!	!LO:TX:b:t=pizzi.	!	!	!	!	!	!	!	!	!	!	!	!	!	!	!	!
.	.	8FF/L	.	8F/	.	.	.	.	.	.	8FF'</L	.	4.c 4.G\	4.ff 4.a- 4.f\	.	2ryy	2ryy	.
.	.	8C/	.	8r	.	.	.	.	.	.	8C'</	.	.	.	.	.	.	.
*	*	*	*	*	*	*	*	*	*	*	*Xped	*	*	*Xped	*	*	*	*
.	.	8F/J	.	8r	.	8ryy	.	8ff\]	.	8ryy	8F'</J	.	.	.	.	.	.	.
!	!	!	!	!	!LO:DY:b:t=pp.:rj	!	!LO:DY:b:t=pp.:rj	!	!LO:DY:b:t=pp.:rj	!	!	!	!	!	!	!	!	!
.	.	8ryy	.	16.F/LL	pp	16.a-/LL	pp	16.cc\LL	pp	8CC/	8C/	.	16.cLL 16.A-\	8r	.	.	.	.
.	.	.	.	32F/JJk	.	32b-/JJk	.	32cc\JJk	.	.	.	.	32d-JJk 32B-\	.	.	.	.	.
=12	=12	=12	=12	=12	=12	=12	=12	=12	=12	=12	=12	=12	=12	=12	=12	=12	=12	=12
8FF/	.	8FF/L	.	(<8F'</L	.	(<8a-'</L	.	(>8cc'>\L	.	8FFF'</L	8FF'</L	.	8cL 8A-'>\	8f'</L	.	2r	2r	.
8r	.	8C/	.	8F'</	.	8g'</	.	8b-'>\	.	8CC'</	8C'</	.	8c 8B- 8G'>\	8f'</	.	.	.	.
4r	.	8FF/L	.	8F'</L	.	8f'</L	.	8a-'>\L	.	8FFF'</L	8FF'</L	.	8c 8A- 8F'>\L	8f'</L	.	.	.	.
.	.	8C/JJ	.	8F'</J)J	.	8g'</J)J	.	8b-'>\J)J	.	8CC'</JJ	8C'</JJ	.	8cJ 8B- 8G'>\J	8f'</JJ	.	.	.	.
4r	.	8FF/L	.	4.F/	.	4.a-/	.	4.cc\	.	4.FFF/	8FF/L	.	4.c 4.A-\	4.f/	.	4r	4r	.
.	.	8C/	.	.	.	.	.	.	.	.	8C/	.	.	.	.	.	.	.
!	!	!	!LO:DY:b	!	!	!	!	!	!	!	!	!LO:DY:b	!	!	!	!	!	!LO:DY:b
8r	.	8F/J	ff	.	.	.	.	.	.	.	8F/J	ff	.	.	.	8r	8r	ff
!	!LO:DY:b:rj	!LO:TX:a:t=arco	!	!	!LO:DY:b:rj	!	!LO:DY:b:rj	!	!LO:DY:b:rj	!	!	!	!	!	!LO:DY:b:rj	!	!	!
*	*	*	*	*	*	*	*	*	*	*	*ped	*	*	*	*	*	*	*
8C'</	ff	8C 8CC'</	.	16.fLL 16.A-\	ff	16.fLL 16.A-/	ff	16.a-\LL	ff	8CC/	8C'</	.	16.cLL 16.A-\	16.a-LL 16.f/	ff	16.C/LL	16.a-LL 16.f/	.
.	.	.	.	32fJJk 32A-\	.	32fJJk 32A-/	.	32cc\JJk	.	.	.	.	32cJJk 32A-\	32ccJJk 32a- 32f/	.	32FJJk 32C 32FF/	32ccJJk 32a-/	.
!!LO:PB:g=original
=13	=13	=13	=13	=13	=13	=13	=13	=13	=13	=13	=13	=13	=13	=13	=13	=13	=13	=13
!	!LO:DY:b:t=ffp.:rj	!	!LO:DY:b:rj	!	!LO:DY:b:rj	!	!LO:DY:b:t=ffp.:rj	!	!LO:DY:b:t=ffp.	!	!	!LO:DY:b:rj	!	!	!LO:DY:b:rj	!	!	!
2.FF/	ffp	8FF^</L	ff	8f 8A-\	sff	[>2.f [<2.A-/	ffp	[>2.cc\	fp	2.FFF/	8FF/L	ff	4.c 4.A-\	4.cc 4.a- 4.f/	ff	4.F 4.C 4.FF/	4.cc 4.a- 4.f/	.
.	.	8C^</	.	8C^</L	.	.	.	.	.	.	8C 8CC^</	.	.	.	.	.	.	.
.	.	8F^</J	.	8F^</J	.	.	.	.	.	.	8FJ 8FF^</	.	.	.	.	.	.	.
!	!	!LO:TX:b:t=pizzi	!	!	!LO:DY:a:rj	!	!	!	!	!	!	!LO:DY:b	!	!	!LO:DY:b:rj	!	!	!
.	.	8r	.	8C'</	p	.	.	.	.	.	16.C/LL	pp	16.cLL 16.A-\	16.a-LL 16.f/	pp	8r	8r	.
.	.	.	.	.	.	.	.	.	.	.	32FF/JJk	.	32cJJk 32A-\	32ccJJk 32a- 32f/	.	.	.	.
.	.	8FF/L	.	8F/	.	.	.	.	.	.	8FF'</L	.	4.c 4.A-\	4.cc 4.a- 4.f/	.	2r	2r	.
.	.	8C/	.	8r	.	.	.	.	.	.	8C'</	.	.	.	.	.	.	.
!	!	!	!LO:DY:b	!	!	!	!	!	!	!	!	!	!	!	!	!	!	!
4r	.	8F/J	p	8r	.	8f] 8A-/]	.	8cc\]	.	8r	8F'</J	.	.	.	.	.	.	.
!	!	!	!	!	!LO:DY:b:rj	!	!LO:DY:b:rj	!	!LO:DY:b	!	!	!	!	!	!	!	!	!
.	.	8CC/	.	16.c\LL	p	(<[<8f/	p	16.a-/LL	p	8AAA-/	8C/	.	16.cLL 16.A-\	8r	.	.	.	.
.	.	.	.	32d-\JJk	.	.	.	32b-/JJk	.	.	.	.	32d-JJk 32B-\	.	.	.	.	.
=14	=14	=14	=14	=14	=14	=14	=14	=14	=14	=14	=14	=14	=14	=14	=14	=14	=14	=14
*M2/4	*	*M2/4	*	*M2/4	*	*M2/4	*	*M2/4	*	*M2/4	*M2/4	*	*M2/4	*M2/4	*	*M2/4	*M2/4	*
2r	.	8FF/L	.	(<8c'</L	.	8f/L]	.	(<8a-'</L	.	8FFF/L	8FF/L	.	8cL 8A-'>\	2r	.	2r	2r	.
.	.	8BB-/	.	8B-'</	.	8d-'</	.	8g-X'</	.	8BBB-/	8BB-/	.	8d- 8B-\	.	.	.	.	.
.	.	8C/J	.	8A-'</L	.	8c'</L	.	8f'</L	.	8CC/L	8C/L	.	8A- 8F'>\L	.	.	.	.	.
!	!	!LO:TX:b:t=arco.	!	!	!	!	!	!	!	!	!LO:TX:b:t=42:color=blue	!	!LO:TX:a:t=43:color=blue	!	!	!	!	!
.	.	8C/	.	8G'</J)J	.	8B-'</J)J	.	8en'</J)J	.	8CC/JJ	8C/JJ	.	8B-J 8G'>\J	.	.	.	.	.
=15	=15	=15	=15	=15	=15	=15	=15	=15	=15	=15	=15	=15	=15	=15	=15	=15	=15	=15
*M4/4	*	*M4/4	*	*M4/4	*	*M4/4	*	*M4/4	*	*M4/4	*M4/4	*	*M4/4	*M4/4	*	*M4/4	*M4/4	*
*met(c)	*	*met(c)	*	*met(c)	*	*met(c)	*	*met(c)	*	*met(c)	*met(c)	*	*met(c)	*met(c)	*	*met(c)	*met(c)	*
!LO:TX:a:t=arco:rj	!LO:HP:a	!	!LO:HP:b	!	!LO:HP:b	!	!LO:HP:b	!	!LO:HP:b	!	!	!	!	!	!	!	!LO:TX:a:B:t=a:color=red	!
!	!LO:DY:b:rj	!	!LO:DY:b:t=fp.:rj	!	!LO:DY:b:t=fp.:rj	!	!LO:DY:b:t=fp.:rj	!	!LO:DY:b:t=fp.:rj	!	!	!LO:HP:b	!	!	!	!	!LO:TX:b:t=(&colon;8&colon;)	!
[<1D-	fp <	8D-\L	fp <	8F/L	fp <	8.A-/L	fp <	8.f/L	fp <	8DD-/	8D-\L	<	8A-\	8f 8d-^</	.	2r	2r	.
.	.	8D-\	.	8A-/	.	.	.	.	.	8r	8A- 8D-\	.	8r	8r	.	.	.	.
.	.	.	.	.	.	16d-/K	.	16f/Jk	.	.	.	.	.	.	.	.	.	.
.	.	8D-\L	.	8A-/L	.	8.c/L	.	8.a-/L	.	4r	8A- 8D-\L	.	4r	4r	.	.	.	.
.	.	8D-\JJ	.	8A-/JJ	.	.	.	.	.	.	8A-J 8D-\J	[	.	.	.	.	.	.
.	.	.	.	.	.	16g/JkJ	.	16a-/Jk	[[	.	.	.	.	.	.	.	.	.
*	*	*tremolo	*	*tremolo	*	*	*	*	*	*	*tremolo	*	*	*	*	*	*	*
*	*	*	*	*	*	*	*	*	*	*	*ped	*	*	*ped	*	*	*	*
!	!LO:HP:a	!	!	!	!	!	!	!	!	!	!	!LO:DY:b=2:rj	!	!	!	!	!	!
.	[ >	8D-\L	[	8A-/L	[	8f/L	[	4.dd-/	.	2DD-/	8A-L 8D-\	sf	2r	2r	.	4.A- 4.D-\	4.dd- 4.f^</	.
.	.	8D-\	.	8A-/	.	8f/	.	.	.	.	8A- 8D-\	.	.	.	.	.	.	.
.	.	8D-\L	.	8A-/L	.	8f/L	.	.	.	.	8A- 8D-\L	.	.	.	.	.	.	.
.	.	8D-\JJ	.	8A-/JJ	.	8f/JJ	.	16.dd-\LL	.	.	8A-J 8D-\J	.	.	.	.	8r	8r	.
.	]	.	.	.	.	.	.	32ee-\JJk	.	.	.	.	.	.	.	.	.	.
=16	=16	=16	=16	=16	=16	=16	=16	=16	=16	=16	=16	=16	=16	=16	=16	=16	=16	=16
*	*	*	*	*	*	*	*	*	*	*tremolo	*Xped	*	*	*Xped	*	*	*	*
!	!	!	!LO:HP:b	!	!LO:HP:b	!	!LO:HP:b	!	!LO:HP:b	!LO:TX:t=P:problem:4 kropki pod nutą	!	!LO:HP:b	!	!	!	!	!LO:TX:b:t=(Echo)	!
1D-_<	]	8D-\L	>	8A-/L	>	(>8g'</L	>	(>8dd-'>\L	>	8DD-'</L	8A-L 8D-\	>	1r	2r	.	2r	2r	.
.	.	8D-\	.	8A-/	.	8g'</	.	8cc'>\	.	8DD-'</	8A- 8D-\	.	.	.	.	.	.	.
.	.	8D-\L	.	8A-/L	.	8g'</L	.	8b-'>\L	.	8DD-'</L	8A- 8D-\L	.	.	.	.	.	.	.
!	!	!	!	!	!	!	!	!	!	!	!LO:TX:a:t=(Echo)	!	!	!	!	!	!	!
.	.	8D-\JJ	.	8A-/JJ	]	8g'</J)J	]	8cc'>\JJ	.	8DD-'</JJ	8A- 8D-\J	.	.	.	.	.	.	.
*	*	*	*	*Xtremolo	*	*	*	*	*	*Xtremolo	*	*	*	*	*	*	*	*
.	.	8D-\L	]	8A-/L	.	8f/L	.	(>4dd-\)	]	2DD-/	8A- 8D-\L	.	.	4r	.	4r	4r	.
.	.	8D-\	.	8A-/	.	8f'</	.	.	.	.	8A-J 8D-\J	.	.	.	.	.	.	.
!	!	!	!	!	!	!	!	!	!	!	!	!	!	!LO:TX:a:t=(Echo)	!	!	!	!LO:DY:b
.	.	8D-\L	.	8A-/L	.	8f'</J	.	8a-\)	.	.	8ryy	]	.	8r	.	8r	8r	pp
*	*	*	*	*	*	*	*	*	*	*	*Xtremolo	*	*	*	*	*	*	*
!	!	!	!	!	!	!	!	!	!	!	!	!LO:DY:b:t=pp.:rj	!	!	!LO:DY:b:rj	!	!	!
.	.	8D-\JJ	.	8A-/JJ	.	8A-/	.	8r	.	.	16.A-\LL	pp	.	16.a-LL 16.f/	pp	16.A-LL 16.F\	16.a-LL 16.f/	.
*	*	*Xtremolo	*	*	*	*	*	*	*	*	*	*	*	*	*	*	*	*
.	.	.	.	.	.	.	.	.	.	.	32B- 32G\JJk	.	.	32b-JJk 32g/	.	32B-JJk 32G\	32b-JJk 32g/	.
!!LO:PB:g=original
=17	=17	=17	=17	=17	=17	=17	=17	=17	=17	=17	=17	=17	=17	=17	=17	=17	=17	=17
*M2/4	*	*M2/4	*	*M2/4	*	*M2/4	*	*M2/4	*	*M2/4	*M2/4	*	*M2/4	*M2/4	*	*M2/4	*M2/4	*
!	!	!LO:TX:a:t=Echo	!LO:DY:b:t=pp.	!LO:TX:a:t=(Echo)	!LO:DY:b:rj	!LO:TX:a:t=(Echo.)	!LO:DY:b:rj	!	!	!	!	!	!	!	!	!	!	!
2D-\_<	.	(>8D-'>\L	pp	(<8A-'</L	pp	(<8c'</L	pp	2r	.	8AA-'/L	8cL 8A-\	.	2r	(>8ccL 8a-'</	.	8cL 8A-\	(<8ccL 8a-'</	.
.	.	8D-'>\	.	8B-'</	.	8d-'</	.	.	.	8AA-'/	8B- 8G-X\	.	.	8b- 8g-X'</	.	8B- 8G-X\	8b- 8g-X'</	.
.	.	8D-'>\L	.	8Bn'</L	.	8dn'</L	.	.	.	8AA-'/L	8A- 8F\L	.	.	8a- 8f'</L	.	8A- 8F\L	8a- 8f'</L	.
.	.	8D-'>\J)J	.	8c'</J)J	.	8e-'</J)J	.	.	.	8AA-'/JJ	8G-J 8E-\J	.	.	8g-J 8e-'</)J	.	8G-J 8E-\J	8g-J 8e-'</)J	.
=18	=18	=18	=18	=18	=18	=18	=18	=18	=18	=18	=18	=18	=18	=18	=18	=18	=18	=18
*M4/4	*	*M4/4	*	*M4/4	*	*M4/4	*	*M4/4	*	*M4/4	*M4/4	*	*M4/4	*M4/4	*	*M4/4	*M4/4	*
*met(c)	*	*met(c)	*	*met(c)	*	*met(c)	*	*met(c)	*	*met(c)	*met(c)	*	*met(c)	*met(c)	*	*met(c)	*met(c)	*
*	*	*tremolo	*	*	*	*	*	*	*	*	*tremolo	*	*	*	*	*	*	*
*	*	*	*	*	*	*	*	*	*	*	*	*	*	*	*	*	*	*^
!	!	!	!LO:HP:b	!	!LO:DY:b:rj	!	!LO:HP:b	!	!	!	!	!	!	!	!	!	!	!	!
!	!	!	!	!	!	!	!	!	!LO:HP:b	!	!	!LO:HP:b	!	!	!	!	!	!	!
!	!LO:HP:b	!	!LO:DY:b:rj	!	!LO:HP:b	!	!LO:DY:b:rj	!	!LO:DY:b:rj	!	!	!LO:DY:b:t=fp.:rj	!	!	!	!	!	!	!LO:DY:b:rj
8D-'>\L]	<	8D-\L	fp <	8.d-\L	fp <	8.A-/L	fp <	8.f/L	fp <	2r	8A-L 8D-\	fp <	1r	8f 8d-/	.	8A- 8F 8D-\	8f 8d-/	.	sf
8D-'>\	.	8D-\	.	.	.	.	.	.	.	.	8A- 8D-\	.	.	8r	.	8r	8r	.	.
.	.	.	.	16d-\K	.	16fK 16A-/	.	16f/K	.	.	.	.	.	.	.	.	.	.	.
!	!	!	!	!	!	!LO:SIC:v:s=g-	!	!	!	!	!	!	!	!	!	!	!	!	!
8D-'>\L	.	8D-\L	.	8.e- 8.c\L	.	8.g 8.A-/	.	8.a-/L	.	.	8A- 8D-\L	.	.	4r	.	4r	4r	.	.
*	*	*	*	*	*	*	*	*	*	*	*ped	*	*	*	*	*	*	*	*
8D-'>\JJ	[	8D-\JJ	[	.	.	.	.	.	.	.	8A-J 8D-\J	.	.	.	.	.	.	.	.
!	!	!	!	!	!	!LO:SIC:v:s=g-	!	!	!	!	!	!	!	!	!	!	!	!	!
.	.	.	.	16e-Jk 16c\J	[	16gJk 16A-/	[	16a-/JkJ	[	.	.	[	.	.	.	.	.	.	.
*	*	*	*	*2\right	*	*	*	*	*	*	*	*	*	*	*	*	*	*	*
*	*	*	*	*tremolo	*	*tremolo	*	*	*	*	*	*	*	*ped	*	*	*	*	*
!	!LO:DY:b:rj	!	!LO:DY:b	!	!LO:DY:b	!	!LO:DY:b:rj	!	!LO:DY:b	!	!	!LO:DY:b	!	!	!	!	!	!LO:DY:b	!LO:DY:b=2:rj
2D-\	f	8D-\L	f	8d-\L	f	8fL 8A-/	f	4.ff\	f	[<2DD-^</	8A-L 8D-\	f	.	2r	.	4.D- 4.DD-/	4.ff 4.a- 4.f\	sf	sf
.	.	8D-\	.	8d-\	.	8f 8A-/	.	.	.	.	8A- 8D-\	.	.	.	.	.	.	.	.
.	.	8D-\L	.	8d-\L	.	8f 8A-/L	.	.	.	.	8A- 8D-\L	.	.	.	.	.	.	.	.
.	.	8D-\JJ	.	8d-\JJ	.	8fJ 8A-/J	.	16.ee-\L	.	.	8A-J 8D-\J	.	.	.	.	8r	8r	.	.
.	.	.	.	.	.	.	.	32dd-\Jk	.	.	.	.	.	.	.	.	.	.	.
*	*	*	*	*	*	*	*	*	*	*	*	*	*	*	*	*	*	*v	*v
=19	=19	=19	=19	=19	=19	=19	=19	=19	=19	=19	=19	=19	=19	=19	=19	=19	=19	=19
*	*	*	*	*	*	*	*	*	*	*	*Xped	*	*	*Xped	*	*	*	*
!	!LO:HP:b	!	!LO:HP:b	!	!LO:HP:b	!LO:SIC:v:s=g-	!LO:HP:b	!LO:TX:a:B:t=a=:color=red	!LO:HP:b	!LO:TX:t=P:problem:tego dźwięku nie ma, ale nie da się inaczej zapisać poprzedzającej ligatury	!	!	!	!	!	!	!LO:TX:a:B:t=a=:color=red	!
!	!	!	!	!	!	!	!	!	!	!	!	!LO:HP:b	!	!	!	!	!	!
(>8D-'>\L	>	8D-/L	>	8e-\L	>	8gL 8A-/	>	(>8dd-'>\L	>	1DD-]yy	8A-L 8D-\	>	1r	2r	.	1r	1r	.
!	!	!	!	!	!	!LO:SIC:v:s=g-	!	!	!	!	!	!	!	!	!	!	!	!
8D-'>\	.	8D-/	.	8e-\	.	8g 8A-/	.	8cc'>\	.	.	8A- 8D-\	.	.	.	.	.	.	.
!	!	!	!	!	!	!LO:SIC:v:s=g-	!	!	!	!	!	!	!	!	!	!	!	!
8D-'>\L	.	8D-/L	.	8e-\L	.	8g 8A-/	.	8b-'>\L	.	.	8A- 8D-\L	.	.	.	.	.	.	.
!	!	!	!	!	!	!LO:SIC:v:s=g-	!	!	!	!	!	!	!	!	!	!	!	!
8D-'>\J)J	]	8D-/JJ	]	8e-\JJ	]	8gJ 8A-/	]	8cc'>\J)J	]	.	8A-J 8D-\J	.	.	.	.	.	.	.
*	*	*	*	*Xtremolo	*	*Xtremolo	*	*	*	*	*	*	*	*	*	*	*	*
2D-\	.	8D-/L	.	8d-\L	.	8fL 8A-/	.	(>4dd-\	.	.	2ryy	]	.	4r	.	.	.	.
.	.	8D-/	.	8d-\	.	8f 8A-/	.	.	.	.	.	.	.	.	.	.	.	.
.	.	8D-/L	.	8d-\L	.	8f 8A-/L	.	8a-/L)	.	.	.	.	.	8r	.	.	.	.
*	*	*	*	*	*	*	*	*	*	*	*	*	*ped	*	*	*	*	*
.	.	8D-/JJ	.	8cn\JJ	.	8A-/JJ	.	8f'</J	.	.	.	.	.	8f'</	.	.	.	.
!	!	!	!	!	!	!	!	!	!	!	!	!	!LO:CL:ed	!	!	!	!	!
*	*	*Xtremolo	*	*	*	*	*	*	*	*	*Xtremolo	*	*clefG2	*	*	*	*	*
=20	=20	=20	=20	=20	=20	=20	=20	=20	=20	=20	=20	=20	=20	=20	=20	=20	=20	=20
*	*	*	*	*	*	*	*	*	*	*	*ped	*	*	*	*	*	*	*
!	!	!	!	!	!	!	!	!	!	!	!	!LO:DY:b:rj	!	!	!LO:DY:b:rj	!	!	!
8D-'</L	.	8D-/L	.	8.Bn^</L	.	8.fL 8.A-^</	.	8.f^</L	.	8DD-/L	8A-L 8F 8D-\	p	2Bn^>/	8.f^</L	p	1r	1r	.
!	!LO:HP:a:t=cres.	!	!	!	!	!	!	!	!	!	!	!	!	!	!	!	!	!
8D-'</	<	8D-/	.	.	.	.	.	.	.	8DD-/	8A- 8F 8D-\	.	.	.	.	.	.	.
.	.	.	.	16B/K	.	16fK 16A-/	.	16f/K	.	.	.	.	.	16f/K	.	.	.	.
!	!	!	!	!	!LO:HP:b:t=cres.	!	!	!	!LO:HP:b:t=cres.	!	!	!LO:HP:b:t=cres&colon;	!	!	!LO:HP:b:t=cres.	!	!	!
8D-'</L	.	8D-/L	.	8B'</	<	8f 8A-'</L	.	8f'</L	<	8DD-/L	8A- 8F 8D-\L	<	.	8f'</L	<	.	.	.
*	*	*	*	*	*	*	*	*	*	*	*	*	*Xped	*	*	*	*	*
8D-'</JJ	.	8D-/JJ	.	8B|</J	.	8fJ 8A-'</J	.	8f'</JJ	.	8DD-/JJ	8A-J 8F 8D-\J	.	.	8f'</JJ	.	.	.	.
*	*	*	*	*	*	*	*	*	*	*	*Xped	*	*	*	*	*	*	*
8C'</L	.	8C/L	.	8.c^</L	.	8.fL 8.A-/	.	8.a-^</L	.	8CC/L	8A-L 8F 8C\	.	2c/	8.a-L 8.f^</	.	.	.	.
8C'</	.	8C/	.	.	.	.	.	.	.	8CC/	8A- 8F 8C\	.	.	.	.	.	.	.
.	.	.	.	16c/K	.	16fK 16A-/	.	16a-/K	.	.	.	.	.	16a-K 16f/	.	.	.	.
8C'</J	.	8C/J	.	8c/J	.	8fJ 8A-/	.	8a-/J	.	8CC/J	8A-J 8F 8C\	.	.	8a-J 8f/	.	.	.	.
!	!	!	!	!	!	!	!	!	!	!	!LO:TX:b:t=(x):rj	!	!	!	!	!	!	!
16.A-^>\LL	.	8ryy	.	16c^</LL	.	16.f^</LL	.	16.a-^</LL	.	16AA-^</LL	16cLL 16A-^>\	.	.	16a-LL 16f^</	.	.	.	.
.	.	.	.	16B|</JJ	.	.	.	.	.	16GG|</JJ	16B-|>JJ 16G\	.	.	16b-JJ 16g|</	.	.	.	.
32G\JJk	.	.	.	.	.	32g|</JJk	.	32b-|</JJk	.	.	.	.	.	.	.	.	.	.
!!LO:PB:g=original
=21	=21	=21	=21	=21	=21	=21	=21	=21	=21	=21	=21	=21	=21	=21	=21	=21	=21	=21
2ryy	.	8F\L	.	8A-\L	.	8a-^</L	.	8cc\L	.	8FF/L	8A-L 8F^>\	.	8r	8ccL 8a-^>\	.	4r	4r	.
.	.	8E-\	.	8c\	.	8b- 8g^</	.	8cc\	.	8EE-/	8G 8E-^>\	.	8gL 8c/	8cc 8b-^>\	.	.	.	.
!	!	!	!	!	!	!	!	!	!	!	!	!	!	!	!	!	!LO:TX:a:t=(Gr. j.)	!
.	.	8Dn\	.	8f\	.	8a-^</	.	8cc\	.	8DDn/	8F 8Dn^>\	.	8f 8c/	8cc 8a-^>\	.	8r	8.r	.
*	*	*	*	*	*	*	*	*	*	*	*ped	*	*	*ped	*	*	*	*
.	.	16C\L	.	16f\L	.	16a-/L	.	16cc\L	.	16CC/L	16E-L 16C\	.	16e-L 16c/	16ccL 16a-\	.	16ryy	.	.
!	!	!	!	!	!	!	!	!	!	!	!	!	!	!	!	!LO:SIC:v:s=Dn	!	!LO:DY:b:rj
.	.	32r	.	32r	.	32r	.	32r	.	32r	32r	.	32r	32r	.	16A- 16F 16D- 16BBn\	16ff 16dd- 16a- 16f\	ff
!	!	!	!LO:DY:b:rj	!	!LO:DY:b	!	!LO:DY:b	!	!LO:DY:b	!	!	!LO:DY:b	!LO:SIC:v:s=dn	!	!	!	!	!
.	.	32BBn\JJk	ff	32dd-JJk 32d-\	fff	32a-/JJk	fff	32ffJJk 32dd-\	fff	32BBnJJk 32BBBn/	32A-JJk 32F 32D\	ff	32fJJk 32d-/	32ffJJk 32ddn 32a-\	.	.	.	.
!	!	!	!	!LO:TX:t=P:problem:mixed beam	!	!	!	!	!LO:HP:b	!LO:TX:a:t=(&colon; Echo.)	!	!	!LO:SIC:v:s=dn	!	!LO:DY:b:t=sfff:rj	!LO:SIC:v:s=Dn	!	!LO:HP:b
[<2BBn/	.	8BB\L	.	8dd-L 8d-\	.	8a-/L	.	[>4ff [>4dd-\	>	4..BB 4..BBB/	4..A- 4..F 4..D\	.	4.f 4.d-/	4.ff 4.dd 4.a-\	sf	[>4A- [>4F [>4D- [>4BB\	[>4ff [>4dd- [<4a- [<4f\	>
!	!LO:HP:a	!	!	!	!	!	!	!	!	!	!	!	!	!	!	!	!	!
.	>	8dn^>\	.	8f^>\	.	8a-^</	.	.	.	.	.	.	.	.	.	.	.	.
!	!	!	!	!	!	!	!	!	!	!	!	!	!	!	!	!LO:SIC:v:s=Dn	!	!
.	.	8D^>\L	.	8F^</L	.	8A-^</L	.	8ff] 8dd-\]	]	.	.	.	.	.	.	16A-] 16F] 16D-] 16BB\]	16ff] 16dd-] 16a-] 16f\]	]
.	.	.	.	.	.	.	.	.	.	.	.	.	.	.	.	16r	16r	.
!	!	!	!	!	!	!	!	!	!	!	!	!	!LO:TX:a:t=(&colon;Echo.)	!	!	!	!	!
.	.	8d^>\JJ	.	8f^>\JJ	.	8a-^</JJ	.	8r	.	.	.	.	8r	16ryy	.	8r	8r	.
!	!	!	!	!	!	!	!	!	!	!	!	!LO:DY:b:rj	!	!	!	!	!	!
.	.	.	.	.	.	.	.	.	.	16BB 16BBB/	16A- 16F 16D\	p	.	32ryy	.	.	.	.
!	!	!	!	!	!	!	!	!	!	!	!	!	!	!	!LO:DY:b:rj	!	!	!
.	]	.	.	.	.	.	.	.	.	.	.	.	.	32f 32d-/	p	.	.	.
=22	=22	=22	=22	=22	=22	=22	=22	=22	=22	=22	=22	=22	=22	=22	=22	=22	=22	=22
!	!LO:DY:b	!	!LO:DY:b	!	!	!	!	!	!	!	!LO:SIC:v:s=Dn	!	!	!	!	!	!	!
2BB/]	p	8r	p	8r	.	8r	.	4r	.	4.BBn 4.BBBn^</	4A- 4F 4D-^>\	.	1r	4f 4d-^</	.	1r	1r	.
!	!	!	!	!	!	!	!LO:DY:a	!	!	!	!	!	!	!	!	!	!	!
.	.	8A-'>\L	.	8dn'>\L	.	8f'</L	pp	.	.	.	.	.	.	.	.	.	.	.
.	.	8Dn'>\L	.	8F'>\L	.	8A-'</	.	8r	.	.	8ryy	.	.	4r	.	.	.	.
!	!	!	!	!	!	!	!	!	!LO:DY:a:rj	!	!	!	!	!	!	!	!	!
.	.	8A-'>\JJ	.	8d'>\JJ	.	16.f'</L	.	16.a-/LL	pp	8BB/	16.A-LL 16.F\	.	.	.	.	.	.	.
.	.	.	.	.	.	32g/JJk	.	32b-/JJk	.	.	32B-JJk 32G\	.	.	.	.	.	.	.
!	!LO:DY:b:rj	!	!LO:DY:b:rj	!	!LO:DY:b:rj	!	!	!	!	!	!	!	!	!	!	!	!	!
8BBny'</L	pp	8D'>\L	pp	8F'>\L	pp	8.f^</L	.	8.a-^</L	.	8BBB/L	8.A-L 8.F\	.	.	2r	.	.	.	.
8BB'</	.	8F'>\	.	8d'>\	.	.	.	.	.	8BB/	.	.	.	.	.	.	.	.
.	.	.	.	.	.	16en/K	.	16g/K	.	.	16GJk 16En\	.	.	.	.	.	.	.
8BB'</L	.	8D'>\L	.	8F'>\L	.	8.f^</L	.	8.a-^</L	.	8BBB/L	8.A-L 8.F\	.	.	.	.	.	.	.
8BB'</JJ	.	8F'>\JJ	.	8d'>\JJ	.	.	.	.	.	8BB/JJ	.	.	.	.	.	.	.	.
.	.	.	.	.	.	16e/JkJ	.	16g/JkJ	.	.	16GJk 16E\	.	.	.	.	.	.	.
=23	=23	=23	=23	=23	=23	=23	=23	=23	=23	=23	=23	=23	=23	=23	=23	=23	=23	=23
*tremolo	*	*tremolo	*	*tremolo	*	*	*	*	*	*	*	*	*	*	*	*	*	*
!LO:TX:t=P:problem:4 kropki pod nutą	!	!LO:TX:t=P:problem:4 kropki nad nutą	!	!LO:TX:t=P:problem:4 kropki pod nutą	!	!	!	!	!	!LO:SIC:v:s=BBBn	!	!	!	!	!	!	!	!
8BBn'</L	.	8Dn'>\L	.	8F'</L	.	8f'</L	.	8a-'</L	.	8BBB-/L	8A- 8F'>\	.	1ryy	4r	.	2r	4r	.
!	!	!	!	!	!	!	!	!	!	!LO:SIC:v:s=BBn	!	!	!	!	!	!	!	!
!	!	!	!	!	!	!	!	!	!	!LO:SIC:v:s=BBBn	!	!	!	!	!	!	!	!
8BB'</	.	8D'>\	.	8F'</	.	8f^</J	.	8a-^</J	.	8BB- 8BBB-/	4A- 4F\	.	.	.	.	.	.	.
!	!	!	!	!	!	!	!	!	!	!LO:SIC:v:s=BBBn	!	!	!	!	!	!	!	!
!	!	!	!	!	!	!	!	!	!	!LO:SIC:v:s=BBn	!	!	!	!	!	!	!LO:TX:a:t=(&colon;8&colon;)	!
8BB'</L	.	8D'>\L	.	8F'</L	.	4r	.	4r	.	8BB- 8BBB-/	.	.	.	8r	.	.	8r	.
!	!	!	!	!	!	!	!	!	!	!LO:SIC:v:s=BBBn	!	!	!	!	!	!	!	!
!	!	!	!	!	!	!	!	!	!	!LO:SIC:v:s=BBn	!	!LO:DY:b	!	!	!LO:DY:b	!	!	!LO:DY:b:t=pp.
8BB'</JJ	.	8D'>\JJ	.	8F'</JJ	.	.	.	.	.	8BB-J 8BBB-/	16.A-LL 16.F\	ppp	.	16.a-LL 16.f/	ppp	.	16.a-LL 16.f/	pp
*Xtremolo	*	*Xtremolo	*	*Xtremolo	*	*	*	*	*	*	*	*	*	*	*	*	*	*
.	.	.	.	.	.	.	.	.	.	.	32B-JJk 32G\	.	.	32b-JJk 32g/	.	.	32b-JJk 32g/	.
!	!LO:DY:b:rj	!	!LO:DY:b:rj	!	!	!	!	!	!	!	!	!	!	!	!	!	!	!
(<8C/L	ppp	(>8A-\L	ppp	(>8E-/L	ppp	2ryy	.	2r	.	(<8CL 8CC/	(>8cL 8A-\	.	.	(<8ccL 8a-^</	.	(>8A-L 8E- 8C\	(<8ccL 8a-/	.
8D-/	.	8B-\	.	8F-X/	.	.	.	.	.	8D- 8DD-/	8B- 8G\	.	.	8b- 8g/	.	8B- 8F-X 8D-\	8b- 8g/	.
8Dn/)L	.	8Bn\)L	.	8Fn/)L	.	.	.	.	.	8Dn 8DDn/L	8A- 8F\)L	.	.	8a- 8f/)L	.	8Bn 8Fn 8Dn\L	8a- 8f/)L	.
!	!	!LO:TX:t=P:problem:bemol dorysowany niebieską kredką	!	!	!	!	!	!LO:TX:a:B:t==B:color=red	!	!	!	!	!	!	!	!	!LO:TX:a:B:t==B:color=red	!
8En'</JJ	.	8B-X'>\JJ	.	8G'</JJ	.	.	.	.	.	8EnJ 8EEn/)J	8B-J 8G\J	.	.	8gJ 8d-/J	.	8B-XJ 8En\)J	8gJ [<8d-/J	.
=24	=24	=24	=24	=24	=24	=24	=24	=24	=24	=24	=24	=24	=24	=24	=24	=24	=24	=24
*	*	*	*	*	*	*	*	*	*	*^	*	*	*	*	*	*	*	*
!LO:TX:b:t==B:color=red	!LO:HP:b	!	!LO:HP:b	!	!LO:HP:b	!	!LO:DY:b:rj	!	!LO:HP:b	!	!	!	!	!	!	!	!	!	!
!	!	!	!	!	!	!	!LO:HP:b	!	!LO:DY:b:rj	!	!	!	!	!	!	!	!	!	!
8F'>\L	<	8F'>\L	<	8.A-/L	<	8.d-/L	p <	8.f/L	p <	(<8FL 8FF/	2ryy	8.A-\L	.	1ryy	8f 8d-/	.	8A- 8F\	8f 8d-/]	.
8F-X'>\	.	8F-X'>\	.	.	.	.	.	.	.	8F-X 8FF-X/	.	.	.	.	8r	.	8r	8r	.
!	!	!	!	!	!	!	!	!	!	!	!	!	!LO:HP:b	!	!	!	!	!	!
.	.	.	.	16A-/Jk	.	16d-/K	.	16f/K	.	.	.	16A-\Jk	<	.	.	.	.	.	.
8E-'>\L	.	8E-'>\L	.	8.g\L	.	8.c/L	.	8.a-/L	.	8E- 8EE-/L	.	8.A-\L	.	.	4r	.	4r	4r	.
8E--'>\JJ	[	8E--'>\JJ	[	.	.	.	.	.	.	8E--J 8EE--/)J	.	.	.	.	.	.	.	.	.
.	.	.	.	16g\Jk	[	16A-/JkJ	[	16a-/JkJ	[	.	.	16A-\Jk	[	.	.	.	.	.	.
*	*	*tremolo	*	*	*	*tremolo	*	*	*	*	*2\right	*ped	*	*	*	*	*	*	*
!	!LO:DY:b	!	!LO:DY:b	!LO:TX:t=P:problem:mixed beam	!LO:DY:b	!	!LO:DY:a	!	!LO:DY:b:rj	!	!	!	!LO:DY:b	!	!	!	!	!	!
[>2D-\	sf	8D-'>\L	sf	8f\L	f	8fL 8A-/	f	4.dd-^>\	f	8D-/L	2DD-\	8A-'>\L	f	.	2r	.	4.A- 4.D-\	4.dd- 4.f^</	.
.	.	8D-'>\	.	8F/	.	8f 8A-/	.	.	.	8D-/	.	8A-'>\	.	.	.	.	.	.	.
.	.	8D-'>\L	.	8F/L	.	8f 8A-/L	.	.	.	8D-/L	.	8A-'>\L	.	.	.	.	.	.	.
.	.	8D-'>\JJ	.	8A-/JJ	.	8fJ 8A-/J	.	(>16dd-\LL	.	8D-/JJ	.	8A-'>\JJ	.	.	.	.	8r	8r	.
*	*	*Xtremolo	*	*	*	*Xtremolo	*	*	*	*	*	*	*	*	*	*	*	*	*
.	.	.	.	.	.	.	.	16ee-\JJ)	.	.	.	.	.	.	.	.	.	.	.
!!LO:PB:g=original
=25	=25	=25	=25	=25	=25	=25	=25	=25	=25	=25	=25	=25	=25	=25	=25	=25	=25	=25	=25
!	!LO:HP:b	!	!	!	!	!	!	!	!	!	!	!	!	!	!	!	!	!	!
*	*	*tremolo	*	*tremolo	*	*	*	*	*	*tremolo	*	*tremolo	*	*	*	*	*	*	*
!	!	!	!LO:HP:b	!LO:TX:t=P:problem:4 kropki pod nutą	!	!	!	!LO:HP:b	!	!	!	!LO:HP:b	!	!	!	!	!	!	!
1D-\]	>	8D-\L	>	8A-'</L	.	(<8g'</L	.	(>8dd-'>\L	>	8D-L 8DD-/	1ryy	8A-\L	>	1ryy	1ryy	.	1ryy	1r	.
!	!	!	!	!	!LO:HP:b	!	!LO:HP:b	!	!	!	!	!	!	!	!	!	!	!	!
.	.	8D-\	.	8A-'</	>	8g'</	>	8cc'>\	.	8D- 8DD-/	.	8A-\	.	.	.	.	.	.	.
.	.	8D-\L	.	8A-'</L	.	8g'</L	.	8b-'>\L	.	8D- 8DD-/L	.	8A-\L	.	.	.	.	.	.	.
*	*	*	*	*	*	*	*	*	*	*	*	*Xped	*	*	*	*	*	*	*
.	]	8D-\JJ	]	8A-'</JJ	]	8g'</J)J	]	8cc'>\JJ)	]	8D-J 8DD-/J	.	8A-\JJ	]	.	.	.	.	.	.
*	*	*	*	*	*	*	*	*	*	*Xtremolo	*	*	*	*	*	*	*	*	*
!	!LO:DY:b	!	!LO:DY:b:rj	!	!	!	!LO:DY:b:rj	!	!LO:DY:b	!	!	!	!LO:DY:b:rj	!	!	!	!	!	!
.	p	8D-\L	p	8A-/L	.	8f'</L	p	(>4dd-^>\	p	[<2DD-/	.	8A-L 8D-\	p	.	.	.	.	.	.
.	.	8D-\	.	8A-/	.	8f'</	.	.	.	.	.	8A- 8D-\	.	.	.	.	.	.	.
!	!	!	!	!	!	!	!	!LO:TX:t=P:problem:mixed beam	!	!	!	!	!	!	!	!	!	!	!
.	.	8D-\L	.	8A-/L	.	8f'</L	.	8a-\L)	.	.	.	8A- 8D-\L	.	.	.	.	.	.	.
.	.	8D-\JJ	.	8A-/JJ	.	8d-/JJ	.	8f'</J	.	.	.	8A-J 8D-\J	.	.	.	.	.	.	.
*	*	*	*	*Xtremolo	*	*	*	*	*	*	*	*	*	*	*	*	*	*	*
*	*	*	*	*	*	*	*	*	*	*v	*v	*	*	*	*	*	*	*	*
=26	=26	=26	=26	=26	=26	=26	=26	=26	=26	=26	=26	=26	=26	=26	=26	=26	=26	=26
!	!LO:HP:b	!	!LO:HP:b	!	!	!	!	!	!	!	!	!LO:HP:b	!	!	!	!	!	!
*tremolo	*	*	*	*	*	*	*	*	*	*	*	*	*	*	*	*	*	*
8D-\L	<	8D-\L	<	8.A-\L	.	8.d-/L	.	8.f^</L	.	8DD-/]	8A-L 8D-\	<	1ryy	1ryy	.	2r	2r	.
8D-\	.	8D-\	.	.	.	.	.	.	.	8r	8A- 8D-\	.	.	.	.	.	.	.
!	!	!	!	!	!LO:HP:b	!	!LO:HP:b	!	!LO:HP:b	!	!	!	!	!	!	!	!	!
.	.	.	.	16d-\K	<	16fK 16A-/	<	16f/Jk	<	.	.	.	.	.	.	.	.	.
!	!	!	!	!	!	!LO:SIC:v:s=g-	!	!	!	!	!	!	!	!	!	!	!	!
8D-\L	.	8D-\L	.	8.e- 8.c\L	.	8.g 8.A-/	.	8.a-/L	.	4r	8A- 8D-\L	.	.	.	.	.	.	.
8D-\JJ	[	8D-\JJ	[	.	.	.	.	.	.	.	8A-J 8D-\J	.	.	.	.	.	.	.
!	!	!	!	!	!	!LO:SIC:v:s=g-	!	!	!	!	!	!	!	!	!	!	!	!
.	.	.	.	16e-Jk 16c\J	.	16gJk 16A-/	[	16a-/Jk	[	.	.	[	.	.	.	.	.	.
*	*	*	*	*tremolo	*	*tremolo	*	*	*	*	*	*	*	*	*	*	*	*
!	!LO:DY:b:rj	!	!LO:DY:b	!	!LO:DY:b:rj	!	!LO:DY:b:rj	!	!LO:DY:b	!	!	!LO:DY:b	!	!	!	!	!	!LO:DY:b:rj
2D-\	f	8D-\L	f	8d-\L	[ f	8fL 8A-/	f	4.ff\	f	2DD-/	8A-L 8D-\	f	.	.	.	4.D- 4.DD-/	4.ff 4.a- 4.f\	sf
.	.	8D-\	.	8d-\	.	8f 8A-/	.	.	.	.	8A- 8D-\	.	.	.	.	.	.	.
.	.	8D-\L	.	8d-\L	.	8f 8A-/L	.	.	.	.	8A- 8D-\L	.	.	.	.	.	.	.
!	!	!	!	!	!	!	!	!	!	!	!LO:TX:b:t=40	!	!	!LO:TX:b:t=41	!	!	!	!
.	.	8D-\JJ	.	8d-\JJ	.	8fJ 8A-/J	.	16ee-\LL	.	.	8A-J 8D-\J	.	.	.	.	8r	8r	.
*Xtremolo	*	*Xtremolo	*	*Xtremolo	*	*Xtremolo	*	*	*	*	*Xtremolo	*	*	*	*	*	*	*
.	.	.	.	.	.	.	.	16dd-\JJ	.	.	.	.	.	.	.	.	.	.
=27	=27	=27	=27	=27	=27	=27	=27	=27	=27	=27	=27	=27	=27	=27	=27	=27	=27	=27
*	*	*	*	*	*	*	*	*	*	*	*Xped	*	*	*Xped	*	*	*	*
!	!LO:HP:b	!	!LO:HP:b	!	!LO:HP:b	!LO:SIC:v:s=g-	!LO:HP:b	!	!LO:HP:b	!	!	!	!	!	!	!	!	!
!	!	!	!	!	!	!	!	!	!	!	!	!LO:HP:b	!	!	!	!	!LO:TX:B:a:t=a = B.\npag. 93	!
(>8D-'>\Lyy	>	8D-/Lyy	>	8e-\Lyy	>	8gLyy 8A-/yy	>	(>8dd-'>\Lyy	>	1ryy	8A-Lyy 8D-\yy	>	1ryy	2ryy	.	1ryy	1ryy	.
!	!	!	!	!	!	!LO:SIC:v:s=g-	!	!	!	!	!	!	!	!	!	!	!	!
8D-'>\yy	.	8D-/yy	.	8e-\yy	.	8gyy 8A-/yy	.	8cc'>\yy	.	.	8A-yy 8D-\yy	.	.	.	.	.	.	.
!	!	!	!	!	!	!LO:SIC:v:s=g-	!	!	!	!	!	!	!	!	!	!	!	!
8D-'>\Lyy	.	8D-/Lyy	.	8e-\Lyy	.	8gyy 8A-/yy	.	8b-'>\Lyy	.	.	8A-yy 8D-\Lyy	.	.	.	.	.	.	.
!	!	!	!	!	!	!LO:SIC:v:s=g-	!	!	!	!	!	!	!	!	!	!	!	!
8D-'>\J)Jyy	]	8D-/JJyy	]	8e-\JJyy	]	8gJyy 8A-/yy	]	8cc'>\J)Jyy	]	.	8A-Jyy 8D-\Jyy	.	.	.	.	.	.	.
*	*	*	*	*Xtremolo	*	*Xtremolo	*	*	*	*	*	*	*	*	*	*	*	*
2D-\yy	.	8D-/Lyy	.	8d-\Lyy	.	8fLyy 8A-/yy	.	(>4dd-\yy	.	.	2ryy	]	.	4ryy	.	.	.	.
.	.	8D-/yy	.	8d-\yy	.	8fyy 8A-/yy	.	.	.	.	.	.	.	.	.	.	.	.
.	.	8D-/Lyy	.	8d-\Lyy	.	8fyy 8A-/Lyy	.	8a-/L)yy	.	.	.	.	.	8ryy	.	.	.	.
*	*	*	*	*	*	*	*	*	*	*	*	*	*ped	*	*	*	*	*
.	.	8D-/JJyy	.	8cn\JJyy	.	8A-/JJyy	.	8f'</Jyy	.	.	.	.	.	8f'</yy	.	.	.	.
!	!	!	!	!	!	!	!	!	!	!	!	!	!LO:CL:ed	!	!	!	!	!
*	*	*Xtremolo	*	*	*	*	*	*	*	*	*Xtremolo	*	*clefG2	*	*	*	*	*
=28	=28	=28	=28	=28	=28	=28	=28	=28	=28	=28	=28	=28	=28	=28	=28	=28	=28	=28
*	*	*	*	*	*	*	*	*	*	*	*ped	*	*	*	*	*	*	*
!	!	!	!	!	!	!	!	!	!	!	!	!LO:DY:b:rj	!	!	!LO:DY:b:rj	!	!	!
8D-'</Lyy	.	8D-/Lyy	.	8.Bn^</Lyy	.	8.fLyy 8.A-^</yy	.	8.f^</Lyy	.	8DD-/Lyy	8A-Lyy 8Fyy 8D-\yy	p	2Bn^>/yy	8.f^</Lyy	p	1ryy	1ryy	.
!	!LO:HP:a:t=cres.	!	!	!	!	!	!	!	!	!	!	!	!	!	!	!	!	!
8D-'</yy	<	8D-/yy	.	.	.	.	.	.	.	8DD-/yy	8A-yy 8Fyy 8D-\yy	.	.	.	.	.	.	.
.	.	.	.	16B/Kyy	.	16fKyy 16A-/yy	.	16f/Kyy	.	.	.	.	.	16f/Kyy	.	.	.	.
!	!	!	!	!	!LO:HP:b:t=cres.	!	!	!	!LO:HP:b:t=cres.	!	!	!LO:HP:b:t=cres&colon;	!	!	!LO:HP:b:t=cres.	!	!	!
8D-'</Lyy	.	8D-/Lyy	.	8B'</yy	<	8fyy 8A-'</Lyy	.	8f'</Lyy	<	8DD-/Lyy	8A-yy 8Fyy 8D-\Lyy	<	.	8f'</Lyy	<	.	.	.
*	*	*	*	*	*	*	*	*	*	*	*	*	*Xped	*	*	*	*	*
8D-'</JJyy	.	8D-/JJyy	.	8B|</Jyy	.	8fJyy 8A-'</Jyy	.	8f'</JJyy	.	8DD-/JJyy	8A-Jyy 8Fyy 8D-\Jyy	.	.	8f'</JJyy	.	.	.	.
*	*	*	*	*	*	*	*	*	*	*	*Xped	*	*	*	*	*	*	*
8C'</Lyy	.	8C/Lyy	.	8.c^</Lyy	.	8.fLyy 8.A-/yy	.	8.a-^</Lyy	.	8CC/Lyy	8A-Lyy 8Fyy 8C\yy	.	2c/yy	8.a-Lyy 8.f^</yy	.	.	.	.
8C'</yy	.	8C/yy	.	.	.	.	.	.	.	8CC/yy	8A-yy 8Fyy 8C\yy	.	.	.	.	.	.	.
.	.	.	.	16c/Kyy	.	16fKyy 16A-/yy	.	16a-/Kyy	.	.	.	.	.	16a-Kyy 16f/yy	.	.	.	.
8C'</Jyy	.	8C/Jyy	.	8c/Jyy	.	8fJyy 8A-/yy	.	8a-/Jyy	.	8CC/Jyy	8A-Jyy 8Fyy 8C\yy	.	.	8a-Jyy 8f/yy	.	.	.	.
!	!	!	!	!	!	!	!	!	!	!	!LO:TX:b:t=(x):rj	!	!	!	!	!	!	!
16.A-^>\LLyy	.	8ryy	.	16c^</LLyy	.	16.f^</LLyy	.	16.a-^</LLyy	.	16AA-^</LLyy	16cLLyy 16A-^>\yy	.	.	16a-LLyy 16f^</yy	.	.	.	.
.	.	.	.	16B|</JJyy	.	.	.	.	.	16GG|</JJyy	16B-|>JJyy 16Gyy\	.	.	16b-JJyy 16g|</yy	.	.	.	.
32G\JJkyy	.	.	.	.	.	32g|</JJkyy	.	32b-|</JJkyy	.	.	.	.	.	.	.	.	.	.
=29	=29	=29	=29	=29	=29	=29	=29	=29	=29	=29	=29	=29	=29	=29	=29	=29	=29	=29
2ryy	.	8F\Lyy	.	8A-\Lyy	.	8a-^</Lyy	.	8cc\Lyy	.	8FF/Lyy	8A-Lyy 8F^>\yy	.	8ryy	8ccLyy 8a-^>\yy	.	4ryy	4ryy	.
.	.	8E-\yy	.	8c\yy	.	8b-yy 8g^</yy	.	8cc\yy	.	8EE-/yy	8Gyy 8E-^>\yy	.	8gLyy 8c/yy	8ccyy 8b-^>\yy	.	.	.	.
!	!	!	!	!	!	!	!	!	!	!	!	!	!	!	!	!	!LO:TX:a:t=(Gr. j.)	!
.	.	8Dn\yyyy	.	8f\yy	.	8a-^</yy	.	8cc\yy	.	8DDn/yy	8Fyy 8Dn^>\yy	.	8fyy 8c/yy	8ccyy 8a-^>\yy	.	8ryy	8.ryy	.
*	*	*	*	*	*	*	*	*	*	*	*ped	*	*	*ped	*	*	*	*
.	.	16C\Lyy	.	16f\Lyy	.	16a-/Lyy	.	16cc\Lyy	.	16CC/Lyy	16E-Lyy 16C\yy	.	16e-Lyy 16c/yy	16ccLyy 16a-\yy	.	16ryy	.	.
!	!	!	!	!	!	!	!	!	!	!	!	!	!	!	!	!LO:SIC:v:s=Dn	!	!LO:DY:b:rj
.	.	32ryy	.	32ryy	.	32ryy	.	32ryy	.	32ryy	32ryy	.	32ryy	32ryy	.	16A-yy 16Fyy 16D-yy 16BBn\yy	16ffyy 16dd-yy 16a-yy 16f\yy	ff
!	!	!	!LO:DY:b:rj	!	!LO:DY:b	!	!LO:DY:b	!	!LO:DY:b	!	!	!LO:DY:b	!LO:SIC:v:s=dn	!	!	!	!	!
.	.	32BBn\JJkyy	ff	32dd-JJkyy 32d-\yy	fff	32a-/JJkyy	fff	32ffJJkyy 32dd-\yy	fff	32BBnJJkyy 32BBBn/yy	32A-JJkyy 32Fyy 32D\yy	ff	32fJJkyy 32d-/yy	32ffJJkyy 32ddnyy 32a-\yy	.	.	.	.
!	!	!	!	!LO:TX:t=P:problem:mixed beam	!	!	!	!	!LO:HP:b	!LO:TX:a:t=(&colon; Echo.)	!	!	!LO:SIC:v:s=dn	!	!LO:DY:b:t=sfff:rj	!LO:SIC:v:s=Dn	!	!LO:HP:b
[<2BBn/yy	.	8BB\Lyy	.	8dd-Lyy 8d-\yy	.	8a-/Lyy	.	[>4ffyy [>4dd-\yy	>	4..BByy 4..BBB/yy	4..A-yy 4..Fyy 4..D\yy	.	4.fyy 4.d-/yy	4.ffyy 4.ddyy 4.a-\yy	sf	[>4A-yy [>4Fyy [>4D-yy [>4BB\yy	[>4ffyy [>4dd-yy [<4a-yy [<4f\yy	>
!	!LO:HP:a	!	!	!	!	!	!	!	!	!	!	!	!	!	!	!	!	!
.	>	8dn^>\yy	.	8f^>\yy	.	8a-^</yy	.	.	.	.	.	.	.	.	.	.	.	.
!	!	!	!	!	!	!	!	!	!	!	!	!	!	!	!	!LO:SIC:v:s=Dn	!	!
.	.	8D^>\Lyy	.	8F^</Lyy	.	8A-^</Lyy	.	8ff]yy 8dd-\]yy	]	.	.	.	.	.	.	16A-]yy 16F]yy 16D-]yy 16BB\]yy	16ff]yy 16dd-]yy 16a-]yy 16f\]yy	]
.	.	.	.	.	.	.	.	.	.	.	.	.	.	.	.	16ryy	16ryy	.
!	!	!	!	!	!	!	!	!	!	!	!	!	!LO:TX:a:t=(&colon;Echo.)	!	!	!	!	!
.	.	8d^>\JJyy	.	8f^>\JJyy	.	8a-^</JJyy	.	8ryy	.	.	.	.	8ryy	16ryy	.	8ryy	8ryy	.
!	!	!	!	!	!	!	!	!	!	!	!	!LO:DY:b:rj	!	!	!	!	!	!
.	.	.	.	.	.	.	.	.	.	16BByy 16BBB/yy	16A-yy 16Fyy 16D\yy	p	.	32ryy	.	.	.	.
!	!	!	!	!	!	!	!	!	!	!	!	!	!	!	!LO:DY:b:rj	!	!	!
.	]	.	.	.	.	.	.	.	.	.	.	.	.	32fyy 32d-/yy	p	.	.	.
=30	=30	=30	=30	=30	=30	=30	=30	=30	=30	=30	=30	=30	=30	=30	=30	=30	=30	=30
!	!LO:DY:b	!	!LO:DY:b	!	!	!	!	!	!	!	!LO:SIC:v:s=Dn	!	!	!	!	!	!	!
2BB/]yy	p	8ryy	p	8ryy	.	8r	.	4ryy	.	4.BBnyy 4.BBBn^</yy	4A-yy 4Fyy 4D-^>\yy	.	1r	4fyy 4d-^</yy	.	1ryy	1ryy	.
!	!	!	!	!	!	!	!LO:DY:a	!	!	!	!	!	!	!	!	!	!	!
.	.	8A-'>\Lyy	.	8dn'>\Lyy	.	8f'</Lyy	pp	.	.	.	.	.	.	.	.	.	.	.
.	.	8Dn'>\Lyy	.	8F'>\Lyy	.	8A-'</yy	.	8ryy	.	.	8ryy	.	.	4ryy	.	.	.	.
!	!	!	!	!	!	!	!	!	!LO:DY:a:rj	!	!	!	!	!	!	!	!	!
.	.	8A-'>\JJyy	.	8d'>\JJyy	.	16.f'</Lyy	.	16.a-/LLyy	pp	8BB/yy	16.A-LLyy 16.F\yy	.	.	.	.	.	.	.
.	.	.	.	.	.	32g/JJkyy	.	32b-/JJkyy	.	.	32B-JJkyy 32G\yy	.	.	.	.	.	.	.
!	!LO:DY:b:rj	!	!LO:DY:b:rj	!	!LO:DY:b:rj	!	!	!	!	!	!	!	!	!	!	!	!	!
8BBny'</Lyy	pp	8D'>\Lyy	pp	8F'>\Lyy	pp	8.f^</Lyy	.	8.a-^</Lyy	.	8BBB/Lyy	8.A-Lyy 8.F\yy	.	.	2ryy	.	.	.	.
8BB'</yy	.	8F'>\yy	.	8d'>\yy	.	.	.	.	.	8BB/yy	.	.	.	.	.	.	.	.
.	.	.	.	.	.	16en/Kyy	.	16g/Kyy	.	.	16GJkyy 16En\yy	.	.	.	.	.	.	.
8BB'</Lyy	.	8D'>\Lyy	.	8F'>\Lyy	.	8.f^</Lyy	.	8.a-^</Lyy	.	8BBB/Lyy	8.A-Lyy 8.F\yy	.	.	.	.	.	.	.
8BB'</JJyy	.	8F'>\JJyy	.	8d'>\JJyy	.	.	.	.	.	8BB/JJyy	.	.	.	.	.	.	.	.
.	.	.	.	.	.	16e/JkJyy	.	16g/JkJyy	.	.	16GJkyy 16E\yy	.	.	.	.	.	.	.
=31	=31	=31	=31	=31	=31	=31	=31	=31	=31	=31	=31	=31	=31	=31	=31	=31	=31	=31
*tremolo	*	*tremolo	*	*tremolo	*	*	*	*	*	*	*	*	*	*	*	*	*	*
!LO:TX:t=P:problem:4 kropki pod nutą	!	!LO:TX:t=P:problem:4 kropki nad nutą	!	!LO:TX:t=P:problem:4 kropki pod nutą	!	!	!	!	!	!LO:SIC:v:s=BBBn	!	!	!	!	!	!	!	!
8BBn'</Lyy	.	8Dn'>\Lyy	.	8F'</Lyy	.	8f'</Lyy	.	8a-'</Lyy	.	8BBB-/Lyy	8A-yy 8F'>\yy	.	1ryy	4ryy	.	2ryy	4ryy	.
!	!	!	!	!	!	!	!	!	!	!LO:SIC:v:s=BBn	!	!	!	!	!	!	!	!
!	!	!	!	!	!	!	!	!	!	!LO:SIC:v:s=BBBn	!	!	!	!	!	!	!	!
8BB'</yy	.	8D'>\yy	.	8F'</yy	.	8f^</Jyy	.	8a-^</Jyy	.	8BB-yy 8BBB-/yy	4A-yy 4F\yy	.	.	.	.	.	.	.
!	!	!	!	!	!	!	!	!	!	!LO:SIC:v:s=BBBn	!	!	!	!	!	!	!	!
!	!	!	!	!	!	!	!	!	!	!LO:SIC:v:s=BBn	!	!	!	!	!	!	!LO:TX:a:t=(&colon;8&colon;)	!
8BB'</Lyy	.	8D'>\Lyy	.	8F'</Lyy	.	4ryy	.	4ryy	.	8BB-yy 8BBB-/yy	.	.	.	8ryy	.	.	8ryy	.
!	!	!	!	!	!	!	!	!	!	!LO:SIC:v:s=BBBn	!	!	!	!	!	!	!	!
!	!	!	!	!	!	!	!	!	!	!LO:SIC:v:s=BBn	!	!LO:DY:b	!	!	!LO:DY:b	!	!	!LO:DY:b:t=pp.
8BB'</JJyy	.	8D'>\JJyy	.	8F'</JJyy	.	.	.	.	.	8BB-Jyy 8BBB-/yy	16.A-LLyy 16.F\yy	ppp	.	16.a-LLyy 16.f/yy	ppp	.	16.a-LLyy 16.f/yy	pp
*Xtremolo	*	*Xtremolo	*	*Xtremolo	*	*	*	*	*	*	*	*	*	*	*	*	*	*
.	.	.	.	.	.	.	.	.	.	.	32B-JJkyy 32G\yy	.	.	32b-JJkyy 32g/yy	.	.	32b-JJkyy 32g/yy	.
!	!LO:DY:b:rj	!	!LO:DY:b:rj	!	!	!	!	!	!	!	!	!	!	!	!	!	!	!
(<8C/Lyy	ppp	(>8A-\Lyy	ppp	(>8E-/Lyy	ppp	2ryy	.	2ryy	.	(<8CLyy 8CC/yy	(>8cLyy 8A-\yy	.	.	(<8ccLyy 8a-^</yy	.	(>8A-Lyy 8E-yy 8C\yy	(<8ccLyy 8a-/yy	.
8D-/yy	.	8B-\yy	.	8F-X/yy	.	.	.	.	.	8D-yy 8DD-/yy	8B-yy 8G\yy	.	.	8b-yy 8g/yy	.	8B-yy 8F-Xyy 8D-\yy	8b-yy 8g/yy	.
8Dn/)Lyy	.	8Bn\)Lyy	.	8Fn/)Lyy	.	.	.	.	.	8Dnyy 8DDn/Lyy	8A-yy 8F\)Lyy	.	.	8a-yy 8f/)Lyy	.	8Bnyy 8Fnyy 8Dn\Lyy	8a-yy 8f/)Lyy	.
!	!	!LO:TX:t=P:problem:bemol dorysowany niebieską kredką	!	!	!	!	!	!	!	!	!	!	!	!	!	!	!	!
8En'</JJyy	.	8B-X'>\JJyy	.	8G'</JJyy	.	.	.	.	.	8EnJyy 8EEn/)Jyy	8B-Jyy 8G\Jyy	.	.	8gJyy 8d-/Jyy	.	8B-XJyy 8En\)Jyy	8gJyy 8d-/Jyy	.
=32	=32	=32	=32	=32	=32	=32	=32	=32	=32	=32	=32	=32	=32	=32	=32	=32	=32	=32
!LO:TX:b:B:t=D=:color=red	!	!	!	!LO:TX:b:t=(x):rj	!	!	!	!LO:TX:a:B:t=D=:color=red	!	!	!	!	!	!	!	!	!LO:TX:a:B:t=D=:color=red	!LO:DY:b:rj
8F\	.	4.F\	.	8A-'</	.	8A-/@	.	4r	.	8F 8FF/	8A-\	.	4c/	4f 4c/	.	1A- 1F	1f 1c	pp
!LO:TX:b:t=pizzi	!	!	!	!	!	!	!	!	!	!	!	!LO:DY:b	!	!	!	!	!	!
8r	.	.	.	(<4A- 4C^</	.	4A-/@	.	.	.	8r	4A- 4C\	p	.	.	.	.	.	.
4F\	.	.	.	.	.	.	.	8r	.	8FF/	.	.	4r	4r	.	.	.	.
!	!	!	!LO:DY:b:rj	!	!	!	!	!	!LO:DY:b:rj	!	!	!	!	!	!	!	!	!
.	.	16.A-^>\LL	p	4A- 4C^</	.	4A-/@	.	16.a-^</LL	p	8r	4A- 4C\	.	.	.	.	.	.	.
.	.	32G\JJk	.	.	.	.	.	32g/JJk	.	.	.	.	.	.	.	.	.	.
!	!	!	!LO:HP:b	!	!	!	!	!	!LO:HP:a	!	!	!	!	!	!	!	!	!
4F\	.	8F\L	<	.	.	.	.	8f/L	<	8FF/	.	.	2r	2r	.	.	.	.
.	.	8c\	.	4A- 4C^</)	.	4A-/@	.	8cc/	.	8r	4A- 4C\	.	.	.	.	.	.	.
4F\	.	8A-\L	.	.	.	.	.	8a-/L	.	8FF/	.	.	.	.	.	.	.	.
!	!	!	!	!LO:TX:t=P:problem:brak zakończenia łuku	!	!	!LO:DY:a:rj	!	!	!	!	!	!	!	!	!	!	!
.	.	8f\JJ	[[	(<[<8C^</	.	[<8A-^</	p	8ff/JJ	[[	8r	[>8A- [<8C\	.	.	.	.	.	.	.
!!LO:PB:g=original
=33	=33	=33	=33	=33	=33	=33	=33	=33	=33	=33	=33	=33	=33	=33	=33	=33	=33	=33
4F\	.	8.e-^>\L	.	8C/])	.	8A-/]	.	8.ee-^>\L	.	8FF/	8A-] 8C\]	.	1ryy	1r	.	[<1F	[>1f	.
.	.	.	.	4C/	.	4A-/	.	.	.	8r	4A- 4C\	.	.	.	.	.	.	.
.	.	16d-\Jk	.	.	.	.	.	16dd-\Jk	.	.	.	.	.	.	.	.	.	.
4F\	.	8c\L	.	.	.	.	.	8cc\	.	8FF/	.	.	.	.	.	.	.	.
!	!	!	!	!	!	!	!	!LO:TUP:a:problem:klamra łukowa	!	!	!	!	!	!	!	!	!	!
.	.	[>8F\J	.	4C/	.	4A-/	.	24bn^>\LL	.	8r	4A- 4C\	.	.	.	.	.	.	.
.	.	.	.	.	.	.	.	24cc\	.	.	.	.	.	.	.	.	.	.
.	.	.	.	.	.	.	.	24dd-\JJ	.	.	.	.	.	.	.	.	.	.
4F\	.	8F\]	.	.	.	.	.	8cc|>\	.	8FF/	.	.	.	.	.	.	.	.
!	!	!	!	!	!	!	!	!LO:TUP:a:problem:klamra łukowa	!	!	!	!	!	!	!	!	!	!
.	.	4F\	.	4C/	.	4B-/	.	24an^>\LL	.	8r	4B- 4D-\	.	.	.	.	.	.	.
!	!	!	!	!	!	!	!	!LO:SIC:v:s=b-	!	!	!	!	!	!	!	!	!	!
.	.	.	.	.	.	.	.	24b\	.	.	.	.	.	.	.	.	.	.
.	.	.	.	.	.	.	.	24cc\JJ	.	.	.	.	.	.	.	.	.	.
4F\	.	.	.	.	.	.	.	8b|>\	.	8FF/	.	.	.	.	.	.	.	.
!	!	!	!	!	!	!	!	!LO:TUP:b:problem:klamra łukowa	!	!	!	!	!	!	!	!	!	!
.	.	[>8F\	.	[<8Dn/	.	[<8Bn/	.	24g^</LL	.	8r	[>8Bn [>8Dn\	.	.	.	.	.	.	.
.	.	.	.	.	.	.	.	24a-X/	.	.	.	.	.	.	.	.	.	.
!	!	!	!	!	!	!	!	!LO:SIC:v:s=b-	!	!	!	!	!	!	!	!	!	!
.	.	.	.	.	.	.	.	24b/JJ	.	.	.	.	.	.	.	.	.	.
=34	=34	=34	=34	=34	=34	=34	=34	=34	=34	=34	=34	=34	=34	=34	=34	=34	=34	=34
4F\	.	8F\]	.	8D/]	.	8B/]	.	8a-'</	.	8FF/	8B] 8D\]	.	2r	4r	.	2.F\_>	(<4.f/]	.
.	.	4F\	.	4E-/	.	4c/	.	4a-^</	.	8r	4c 4E-\	.	.	.	.	.	.	.
4F\	.	.	.	.	.	.	.	.	.	8FF/	.	.	.	8r	.	.	.	.
!	!	!	!	!	!	!	!	!	!LO:HP:b	!	!	!	!	!	!	!	!	!
.	.	.	.	.	.	.	.	8qb-/	<	.	.	.	.	8qb-/	.	.	.	.
!	!	!	!	!	!	!	!LO:HP:b	!	!	!	!	!LO:HP:b:color=blue	!	!	!	!	!	!
.	.	(>8B-\	.	8En/	.	(<8d-X/	<	16.a-/LL	.	8r	(>8d-X 8B-y 8En\	<	.	16.a-/LL	.	.	8d-X/	.
!	!	!	!	!	!	!	!	!	!	!	!	!	!	!	!LO:HP:a:color=blue	!	!	!
.	.	.	.	.	.	.	.	32g/JJk	.	.	.	.	.	32g/JJk	<	.	.	.
!LO:TX:b:t=arco	!LO:DY:b:rj	!	!LO:HP:b	!	!	!	!	!	!	!	!LO:N:vis=4	!	!	!	!	!	!	!
8F\	p	8A-\L)	<	8F/L	.	8A-/L)	.	8f/L	.	8FF/	8c 8A- 8F\)	.	4r	8f/L	.	.	8f'</L)	.
8r	.	(>8c\	.	8cJ 8C/	.	(<8a-/	.	(<8cc/	.	8r	4c 4A- 4F\	.	.	(<8cc 8a-/	.	.	(<8a- 8c/	.
!	!LO:HP:b	!	!	!	!	!	!	!	!	!	!	!	!	!	!	!	!	!
8F'>\L	<	8A-\J)	[[	8r	.	8f/J)	.	8a-/J)	[	8FF'</L	.	[	8r	8a-J 8f/)	.	8F\]	8f/J)	.
!	!	!	!	!	!	!	!	!	!	!LO:S:s=1:note:problem:note-level slur	!	!	!	!	!	!	!	!
!	!	!	!LO:DY:b	!	!LO:DY:b	!	!	!	!	!LO:S:s=2:note:problem:note-level slur	!	!	!	!	!LO:DY:b	!	!	!
(>8F\J	[[	(>8A-\	f	8a-'>\	f	8ff|>\	[	8aa-|>\	.	(<(<8FFJ 8FFF/	8c 8A- 8F\	.	8a- 8f'</	8aa- 8ff'>\	[ f	8F 8FF/	8a- 8c/	.
=35	=35	=35	=35	=35	=35	=35	=35	=35	=35	=35	=35	=35	=35	=35	=35	=35	=35	=35
*	*	*	*	*	*	*	*	*	*	*	*ped	*	*	*ped	*	*	*	*
.	.	.	.	.	.	.	.	.	.	.	.	.	.	.	.	.	.	.
!	!	!	!	!	!	!	!	!	!	!LO:S:s=1:note:problem:note-level slur	!	!	!	!	!	!	!	!LO:DY:b:rj
!	!LO:DY:b:rj	!	!	!	!	!	!LO:DY:b:rj	!	!LO:DY:b:rj	!LO:S:s=2:note:problem:note-level slur	!	!LO:DY:b	!	!	!	!	!	!LO:HP:b
8G\L)	f	8B-\L)	.	8.g^>\L	.	8.ee-^>\L	f	8.gg^>\L	f	8GGL) 8GGG/)	(>8B-\L	f	8.gL 8.e-^</	8.ggL 8.ee-^>\	.	(>4G 4E- (<4GG\	(>4b- 4e- (<4B-/	> sf
(>8G\	.	8E-'>\	.	.	.	.	.	.	.	(<8GG 8GGG/	8E-\)	.	.	.	.	.	.	.
*	*	*	*	*	*	*	*	*	*	*	*Xped	*	*	*Xped	*	*	*	*
.	.	.	.	16f\K	.	16dd-\K	.	16ff\K	.	.	.	.	16fJk 16d-/	16ffJk 16dd-\	.	.	.	.
!	!	!	!LO:HP:b:t=dimin..	!	!	!	!	!	!	!	!	!LO:HP:b	!	!LO:TX:a:t=(x)	!	!	!	!
8A-\)L	.	8c 8E-\L	>	8e-\J	.	8cc\J	.	8ee-\J	.	8AA- 8AAA-/)L	8E-\J	>	8e- 8c/	8ee- 8cc\	.	8A- 8E- 8AA-\))	8cc'< 8e- 8c/))	]
!	!	!	!	!LO:TUP:a:problem:klamra łukowa	!	!LO:TUP:a:problem:klamra łukowa	!	!LO:TUP:a:problem:klamra łukowa	!LO:HP:b:t=diminuendo	!	!	!	!LO:TUP:a:problem:klamra łukowa	!LO:TUP:a:problem:klamra łukowa	!	!	!	!
(>8B-\JJ	.	(>8B-\JJ	.	24e-\LL	.	24cc^>\LL	.	24ee-^>\LL	>	(<8BB-J 8BBB-/J	(>8B-\	.	24cc\LL	24ee-\LL	>	8r	8r	.
.	.	.	.	24d-\	.	24b-\	.	24dd-\	.	.	.	.	24b-\	24dd-\	.	.	.	.
!	!	!	!	!	!	!	!	!	!	!	!	!	!	!	!LO:HP:b:t=dimin.	!	!	!
.	.	.	.	24c\JJ	.	24a-\JJ	.	24cc\JJ	.	.	.	.	24a-\JJ	24cc\JJ	>	.	.	.
8c\)	.	8c\L)	.	8c\L	.	8a-|</	.	8cc|>\	.	8C 8CC'</)	8c\L)	]	8a-/	8cc\	.	2r	2r	.
*	*	*	*	*	*	*	*	*	*	*	*	*	*Xtuplet	*Xtuplet	*	*	*	*
!	!	!	!	!	!	!LO:TUP:b:problem:klamra łukowa	!	!LO:TUP:b:problem:klamra łukowa	!	!	!	!LO:DY:b	!LO:TUP:b:problem:klamra łukowa	!LO:TUP:b:problem:klamra łukowa	!	!	!	!
8r	.	8c\J	.	8c'>\J	.	24a-^>/LL	.	24cc/LL	.	8r	8c'>\J	p	24a-/LL	24cc\LL	.	.	.	.
.	.	.	.	.	.	24g/	.	24b-/	.	.	.	.	24g/	24b-\	.	.	.	.
.	.	.	.	.	.	24f/JJ	.	24a-/JJ	.	.	.	.	24f/JJ	24a-\JJ	.	.	.	.
8C/	.	8r	.	8r	.	8.c/L	.	8.a-^</L	.	8CC'</	8r	.	8.f/L	8.a-/L	.	.	.	.
8r	.	[<8C'</	.	8c 8C/	.	.	.	.	.	8ryy	8C'</	.	.	.	.	.	.	.
.	.	.	.	.	.	16B-/Jk	.	16g/Jk	.	.	.	.	16en/Jk	16g/Jk	.	.	.	.
=36	=36	=36	=36	=36	=36	=36	=36	=36	=36	=36	=36	=36	=36	=36	=36	=36	=36	=36
*	*	*	*	*	*	*	*	*	*	*^	*	*	*	*	*	*	*	*
!	!LO:DY:b:rj	!	!LO:DY:b	!	!	!	!	!	!LO:DY:b	!	!	!	!	!	!	!LO:DY:b:rj	!	!	!
4.F\	p	8C/]	p	4.C/	.	4.A-/	.	4.f/	p	4.FF/	4.FF\	8r	.	4f/	4f/	p	1r	1r	.
.	.	16.C/LL	.	.	.	.	.	.	.	.	.	16.C\LL	.	.	.	.	.	.	.
.	.	32C/JJk	.	.	.	.	.	.	.	.	.	32C\JJk	.	.	.	.	.	.	.
.	.	4F^>\	.	.	.	.	.	.	.	.	.	[>4F^>\	.	4r	4r	.	.	.	.
8BB-/	.	.	.	16.D-/LL	.	16.B-/LL	.	16.f/LL	.	(>8D-/	(<8BB-\	.	.	.	.	.	.	.	.
.	.	.	.	32D-/JJk	.	32B-/JJk	.	32f/JJk	.	.	.	.	.	.	.	.	.	.	.
4F\	.	8r	.	4.C/	.	4.A-/	.	4.f/	.	8C/)	4.FF\)	8F\L]	.	2r	2r	.	.	.	.
.	.	16.C/LL	.	.	.	.	.	.	.	8r	.	16.C\L	.	.	.	.	.	.	.
.	.	32C/JJk	.	.	.	.	.	.	.	.	.	32C\JJk	.	.	.	.	.	.	.
8ryy	.	4F\	.	.	.	.	.	.	.	8r	.	4F^>\	.	.	.	.	.	.	.
!LO:TX:b:B:t==E:color=red	!	!	!	!	!	!	!	!	!	!	!	!	!	!	!	!	!	!	!
8BB-/	.	.	.	16.D-/LL	.	16.B-/LL	.	16.f/LL	.	(>8D-/	(<8BB-\	.	.	.	.	.	.	.	.
!	!	!	!	!	!	!	!	!LO:TX:a:B:t==E:color=red	!	!	!	!	!	!	!	!	!	!LO:TX:a:B:t==E:color=red	!
.	.	.	.	32D-/JJk	.	32B-/JJk	.	32f/JJk	.	.	.	.	.	.	.	.	.	.	.
*	*	*	*	*	*	*	*	*	*	*v	*v	*	*	*	*	*	*	*	*
!!LO:PB:g=original
=37	=37	=37	=37	=37	=37	=37	=37	=37	=37	=37	=37	=37	=37	=37	=37	=37	=37	=37
8F\	.	8F\	.	8C/L	.	8A-/	.	8f/	.	8C 8FF/))	8F\	.	8A-/	8f/	.	1r	1r	.
8r	.	8r	.	16.C/L	.	8r	.	8r	.	8r	16.C/LL	.	8r	8r	.	.	.	.
.	.	.	.	32C/JJk	.	.	.	.	.	.	32C/JJk	.	.	.	.	.	.	.
*	*	*	*	*rep	*	*	*	*	*	*	*	*	*	*	*	*	*	*
8F\	.	8F\	.	8C/L	.	8f 8A-/	.	4r	.	8FF/	8C/L	.	8A-/	8f/	.	.	.	.
8r	.	8r	.	16.C/L	.	8r	.	.	.	8r	16.C/L	.	8r	8r	.	.	.	.
.	.	.	.	32C/JJk	.	.	.	.	.	.	32C/JJk	.	.	.	.	.	.	.
*	*	*	*	*Xrep	*	*	*	*	*	*	*	*	*	*	*	*	*	*
*	*	*	*	*rep	*	*	*	*	*	*	*	*	*	*	*	*	*	*
4F\	.	4F\	.	8C/L	.	4f 4A-/	.	4r	.	4FF/	8C/L	.	4A-/	4f/	.	.	.	.
.	.	.	.	16.C/L	.	.	.	.	.	.	16.C/L	.	.	.	.	.	.	.
.	.	.	.	32C/JJk	.	.	.	.	.	.	32C/JJk	.	.	.	.	.	.	.
*	*	*	*	*Xrep	*	*	*	*	*	*	*	*	*	*	*	*	*	*
*	*	*	*	*rep	*	*	*	*	*	*	*	*	*	*	*	*	*	*
!	!	!	!	!	!	!	!	!	!LO:DY:b:rj	!	!	!	!	!	!	!	!	!
4r	.	4r	.	8C/L	.	4r	.	8.cc^>\L	p	4ryy	8C/L	.	4r	4r	.	.	.	.
.	.	.	.	16.C/L	.	.	.	.	.	.	16.C/L	.	.	.	.	.	.	.
.	.	.	.	.	.	.	.	16a-\Jk	.	.	.	.	.	.	.	.	.	.
.	.	.	.	32C/JJk	.	.	.	.	.	.	32C/JJk	.	.	.	.	.	.	.
*	*	*	*	*Xrep	*	*	*	*	*	*	*	*	*	*	*	*	*clefF4	*
=38	=38	=38	=38	=38	=38	=38	=38	=38	=38	=38	=38	=38	=38	=38	=38	=38	=38	=38
!	!	!	!LO:DY:b:rj	!	!	!	!	!	!	!	!	!	!	!	!	!	!LO:TX:a:B:t=E:color=red	!LO:DY:b:rj
1r	.	(>8f\L	p	8c^<\	.	1r	.	4f/	.	1ryy	(>8cL 8A-^>\	.	1ryy	1ryy	.	(>8A-^>\L	(>8c^>\L	p
.	.	8e-\	.	8r	.	.	.	.	.	.	8B- 8G\	.	.	.	.	8G\	8B-\	.
.	.	8d-\L	.	4r	.	.	.	8.f/L	.	.	8A- 8F\L	.	.	.	.	8F\L	8A-\L	.
.	.	8c\JJ	.	.	.	.	.	.	.	.	8GJ 8E-\J	.	.	.	.	8E-\JJ	8G\JJ	.
.	.	.	.	.	.	.	.	16f/Jk	.	.	.	.	.	.	.	.	.	.
.	.	8B-\L	.	2r	.	.	.	4.f/	.	.	8FL 8D-\	.	.	.	.	8D-/L	8F\L	.
.	.	8A-\	.	.	.	.	.	.	.	.	8E- 8C\	.	.	.	.	8C/	8E-\	.
.	.	8G\L	.	.	.	.	.	.	.	.	8D- 8BB-\)L	.	.	.	.	8BB-/L	8D-\	.
!	!	!	!	!	!LO:DY:b:rj	!	!LO:DY:b:rj	!	!	!	!	!	!	!	!	!	!	!
.	.	8F\J)J	.	.	p	.	p	8f/	.	.	8CJ 8AA-\J	.	.	.	.	8AA-/J)J	8C\J)	.
=39	=39	=39	=39	=39	=39	=39	=39	=39	=39	=39	=39	=39	=39	=39	=39	=39	=39	=39
!LO:TX:b:t=pizzi.:rj	!LO:DY:b:t=pp.	!	!	!	!LO:DY:b:rj	!	!LO:DY:b:rj	!	!	!	!	!	!	!	!	!	!LO:TX:B:a:t=C = B\npag. 89.\nund\n D = E\npag 95.	!
!	!	!	!	!	!	!	!	!	!	!	!	!	!	!	!	!	!LO:TX:B:a:t=21.:color=blue	!
8BB-/Lyy	pp	8BB-'</Lyy	.	4F/yy	p	4d-/yy	p	4g/yy	.	1ryy	8Fyy 8FF/yy	.	1ryy	1ryy	.	8BB-/)yy	8F\)yy	.
8C/Jyy	.	8C'</Jyy	.	.	.	.	.	.	.	.	8ryy	.	.	.	.	8ryy	8ryy	.
8D-/Lyy	.	8D-^</Lyy	.	8.F/Lyy	.	8.B-/Lyy	.	8.f/Lyy	.	.	4ryy	.	.	.	.	4ryy	4ryy	.
16C/Lyy	.	16C'</Lyy	.	.	.	.	.	.	.	.	.	.	.	.	.	.	.	.
16BB-/JJyy	.	16BB-'</JJyy	.	16F/Jkyy	.	16d-/Jkyyyy	.	16g/Jkyy	.	.	.	.	.	.	.	.	.	.
8FF/Lyy	.	8FF'</Lyy	.	(<4F/yy	.	(<4f/yy	.	(<4a-/yy	.	.	2ryy	.	.	.	.	2ryy	2ryy	.
8C/yy	.	(<8C/yy	.	.	.	.	.	.	.	.	.	.	.	.	.	.	.	.
8F/Lyy	.	8F'</)Lyy	.	8c'</L)yy	.	8f'</Lyy	.	8a-'</Lyy	.	.	.	.	.	.	.	.	.	.
8E-/JJyy	.	8E-'</JJyy	.	8c/Jyy	.	8a-'</J)yy	.	8a-'</J)yy	.	.	.	.	.	.	.	.	.	.
=40	=40	=40	=40	=40	=40	=40	=40	=40	=40	=40	=40	=40	=40	=40	=40	=40	=40	=40
!LO:TX:t=P:problem: t. 5-6 (fragment) odwołanie do partii Violon	!	!	!	!	!	!	!	!	!	!	!	!	!	!	!	!	!	!
8D-'</Lyy	.	8D-'</Lyy	.	4f\yy	.	4a-/yy	.	4b-\yy	.	1ryy	1ryy	.	1ryy	1ryy	.	2ryy	2ryy	.
8BB-'</yy	.	8BB-'</yy	.	.	.	.	.	.	.	.	.	.	.	.	.	.	.	.
!	!	!	!	!LO:TX:b:t=cres. _:problem:dynamics with extention lines 	!LO:HP:i:b:t=cres.	!	!	!LO:TX:b:t=cres. _:problem:dynamics with extention lines	!LO:HP:i:b:t=cres.:ext=ut	!	!	!	!	!	!	!	!	!
8E-'</Lyy	.	8E-'</Lyy	.	8e-'>\Lyy	<	8g'</Lyy	.	8b-'>\Lyy	<	.	.	.	.	.	.	.	.	.
8E-'</JJyy	.	8E-'</JJyy	.	8e-'>\Jyy	.	16f/Lyy	.	16a-\Lyy	.	.	.	.	.	.	.	.	.	.
.	.	.	.	.	.	16g/JJyy	.	16b-\JJyy	.	.	.	.	.	.	.	.	.	.
8AA-'</Lyy	.	8AA-'</Lyy	.	4e-\yy	.	(>4b-\yy	.	4cc\yy	[	.	.	.	.	.	.	4ryy	4ryy	.
8E-'</yy	.	8E-'</yy	.	.	.	.	.	.	.	.	.	.	.	.	.	.	.	.
8A-'</Lyy	.	8A-'</Lyy	.	8e-\Lyy	[	8a-'>\)yy	.	8cc\yy	.	.	.	.	.	.	.	8ryy	8ryy	.
8F'</JJyy	.	8F'</JJyy	.	8f'>\Jyy	.	8a-'>\yy	.	16cc\LLyy	.	.	.	.	.	.	.	8A-\yy	16c\LLyy	.
!	!	!	!	!	!	!	!	!	!	!	!	!	!	!	!	!	!	!LO:DY:b
.	.	.	.	.	.	.	.	16ddn\JJyy	.	.	.	.	.	.	.	.	16dn\JJyy	p
=41	=41	=41	=41	=41	=41	=41	=41	=41	=41	=41	=41	=41	=41	=41	=41	=41	=41	=41
!LO:TX:t=P:problem:mixed beam	!	!LO:TX:t=P:problem:mixed beam	!	!	!LO:DY:b	!	!	!	!LO:DY:b	!	!	!	!	!	!	!	!	!
8C'</Lyy	.	8C'</Lyy	.	(<8e-'>\Lyy	.	(<8g/Lyy	mf	(>8ee-'>\Lyy	mf	1ryy	1ryy	.	1ryy	1ryy	.	(>8G\Lyy	(>8e-\Lyy	.
8Fn'>\yy	.	8Fn'>\yy	.	8a-'>\yy	.	8f'</yyyy	.	8ddn'>\yyyyyy	.	.	.	.	.	.	.	8F\yy	8dn\yy	.
8G'>\Lyy	.	8G'>\Lyy	.	8g'>\Lyy	.	8e-'</Lyy	.	8cc'>\Lyyyy	.	.	.	.	.	.	.	8E-\Lyy	8c\Lyy	.
8GG'</JJyy	.	8GG'</JJyy	.	8f'>\J)Jyy	.	8d-/J)Jyy	.	8bn'>\J)Jyy	.	.	.	.	.	.	.	8D-X\JJyy	8Bn\JJyy	.
!	!	!	!	!LO:TX:t=P:problem:mixed beam	!	!	!	!	!	!	!	!	!	!	!	!	!	!
8C'>\Lyy	.	8C'>\Lyy	.	8e-'>\Lyy	.	4c/yy	.	4cc\yy	.	.	.	.	.	.	.	4.C/)yy	4.c\)yy	.
8G'>\yy	.	8G'>\yy	.	8G'</yy	.	.	.	.	.	.	.	.	.	.	.	.	.	.
8c\Jyy	.	8c'>\Jyy	.	8c'</Jyy	.	8ryy	.	8.ee-^>\Lyyyy	.	.	.	.	.	.	.	.	.	.
8ryy	.	8ryy	.	8e-'>\yy	.	8e-'</yy	.	.	.	.	.	.	.	.	.	8ryy	8ryy	.
.	.	.	.	.	.	.	.	16cc\Jkyy	.	.	.	.	.	.	.	.	.	.
=42	=42	=42	=42	=42	=42	=42	=42	=42	=42	=42	=42	=42	=42	=42	=42	=42	=42	=42
1r	.	(>8e-Lyy 8c\yy	.	(>8a-\Lyy	.	(<8a-/Lyy	.	4a-/yy	.	1ryy	(>8e-Lyy 8c\yy	.	1ryy	1ryy	.	(>8c\Lyy	(>8e-\Lyy	.
.	.	8d-Xyy 8B-\yy	.	8g\yy	.	8g/yy	.	.	.	.	8d-Xyy 8B-\yy	.	.	.	.	8B-\yy	8d-X\yy	.
.	.	8cyy 8A-\Lyy	.	8f\Lyy	.	8f/Lyy	.	8.a-/Lyy	.	.	8cyy 8A-\Lyy	.	.	.	.	8A-\Lyy	8c\Lyy	.
.	.	8B-Jyy yy8G\Jyy	.	8e-\JJyy	.	8e-/JJyy	.	.	.	.	8B-Jyy 8G\Jyy	.	.	.	.	8G\JJyy	8B-\JJyy	.
.	.	.	.	.	.	.	.	16a-/Jkyy	.	.	.	.	.	.	.	.	.	.
.	.	8A-Lyy 8F\yy	.	8d-\Lyy	.	8d-/Lyy	.	4.a-/yy	.	.	8A-Lyy 8F\yy	.	.	.	.	8F\Lyy	8A-\Lyy	.
.	.	8Gyy 8E-\yy	.	8c\yy	.	8c/yy	.	.	.	.	8Gyy 8E-\yy	.	.	.	.	8E-\yy	8G\yy	.
.	.	8Fyy 8D-\Lyy	.	8B-\Lyy	.	8B-/Lyy	.	.	.	.	8Fyy 8D-\Lyy	.	.	.	.	8D-\Lyy	8F\Lyy	.
.	.	8E-Jyy 8C\)Jyy	.	8A-\J)Jyy	.	8A-/J)Jyy	.	8a-/yy	.	.	8E-Jyy 8C\)Jyy	.	.	.	.	8C\J)Jyy	8E-\J)Jyy	.
=43	=43	=43	=43	=43	=43	=43	=43	=43	=43	=43	=43	=43	=43	=43	=43	=43	=43	=43
*	*	*	*	*	*	*	*	*	*	*	*^	*	*	*	*	*	*	*
8BB-/Lyy	.	8BB-^</Lyy	.	4A-^</yy	.	4f^</yyyy	.	4dd-^>\yy	.	4ryy	(>4F/yy	8FLyy 8BB-\yy	.	1ryy	1ryy	.	8F\yy	8A-\yy	.
!	!	!	!LO:DY:b:rj	!	!	!	!	!	!	!	!	!	!	!	!	!	!	!	!
16C/Lyy	.	16C'</Lyy	p	.	.	.	.	.	.	.	.	16C\Lyy	.	.	.	.	8ryy	8ryy	.
16D-/JJyy	.	16D-'</JJyy	.	.	.	.	.	.	.	.	.	16D-\JJyy	.	.	.	.	.	.	.
!	!	!LO:TX:t=P:problem:mixed beam	!	!	!	!	!	!	!	!	!	!	!	!	!	!	!	!	!
8E-\Lyy	.	8E-\Lyy	.	8A-'</Lyy	.	8e-'</Lyy	.	8cc'>\Lyyyy	.	8ryy	8E-/L)yy	8E-\yy	.	.	.	.	4ryy	4ryy	.
8E-\Jyy	.	8EE-/Jyy	.	8d-'</Jyy	.	8g'</Jyy	.	8b-'>\Jyy	.	8EE-'</yy	8E-'</Jyy	8ryy	.	.	.	.	.	.	.
!	!	!LO:TX:t=P:problem:mixed beam	!	!	!	!	!	!	!	!	!	!	!	!	!	!	!	!	!
8AA-/yy	.	8AA-'</Lyy	.	(>4c\yy	.	4a-/yy	.	4.cc\yy	.	8AA-'</yy	2ryy	2ryy	.	.	.	.	2ryy	2ryy	.
8ryy	.	8E-'>\yy	.	.	.	.	.	.	.	8ryy	.	.	.	.	.	.	.	.	.
8ryy	.	8A-'>\Jyy	.	8e-\)yy	.	8a-/yy	.	.	.	4ryy	.	.	.	.	.	.	.	.	.
8A-\yy	.	8ryy	.	8c\yy	.	8a-/yy	.	(>16cc\LLyy	.	.	.	.	.	.	.	.	.	.	.
.	.	.	.	.	.	.	.	16ee-\JJ)yy	.	.	.	.	.	.	.	.	.	.	.
*	*	*	*	*	*	*	*	*	*	*	*v	*v	*	*	*	*	*	*	*
=44	=44	=44	=44	=44	=44	=44	=44	=44	=44	=44	=44	=44	=44	=44	=44	=44	=44	=44
!	!	!LO:TX:b:t=pizzi	!	!	!	!	!	!	!	!	!	!	!	!	!	!	!	!
8E-\yy	.	8ryy	.	8.B-^</Lyy	.	8.g^</Lyy	.	8.ee-Lyy 8.e-^</yy	.	1ryy	1ryy	.	1ryy	1ryy	.	1ryyyy	1ryy	.
8ryy	.	8BB-/Lyy	.	.	.	.	.	.	.	.	.	.	.	.	.	.	.	.
.	.	.	.	16B-/Kyy	.	16g/Kyy	.	16b-Kyy 16e-/yy	.	.	.	.	.	.	.	.	.	.
8ryy	.	8E-/Jyy	.	8B-/Lyy	.	8g/Lyy	.	8b-yy 8e-'</Lyy	.	.	.	.	.	.	.	.	.	.
8E-\yy	.	8ryy	.	8c/JJyy	.	8gJyy 8G/Jyy	.	8ccJyy 8e-'</Jyy	.	.	.	.	.	.	.	.	.	.
8F\yy	.	8ryy	.	8c'</Lyy	.	4.fyy 4.A-/yy	.	4.a-/yy	.	.	.	.	.	.	.	.	.	.
8ryy	.	8C\Lyy	.	8C'</yy	.	.	.	.	.	.	.	.	.	.	.	.	.	.
8ryy	.	8E-\Lyy	.	8F/Jyy	.	.	.	.	.	.	.	.	.	.	.	.	.	.
8D-\yy	.	8D-\JJyy	.	8A-/yy	.	8f/yy	.	16.a-/LLyy	.	.	.	.	.	.	.	.	.	.
.	.	.	.	.	.	.	.	32cc/JJkyy	.	.	.	.	.	.	.	.	.	.
=45	=45	=45	=45	=45	=45	=45	=45	=45	=45	=45	=45	=45	=45	=45	=45	=45	=45	=45
8C\yy	.	8C/Lyy	.	4A-/yy	.	4f/yy	.	4cc\yy	.	2ryy	2ryy	.	2ryy	2ryy	.	2ryy	2ryy	.
8ryy	.	8C/Jyy	.	.	.	.	.	.	.	.	.	.	.	.	.	.	.	.
8C\yy	.	8ryy	.	4B-/yy	.	4en/yy	.	8.g/Lyy	.	.	.	.	.	.	.	.	.	.
8ryy	.	8C/yy	.	.	.	.	.	.	.	.	.	.	.	.	.	.	.	.
.	.	.	.	.	.	.	.	16a-/Jkyyyy	.	.	.	.	.	.	.	.	.	.
*	*	*	*	*	*	*	*	*	*	*	*ped	*	*	*	*	*	*	*
8F\yy	.	8ryy	.	4A-/yy	.	4f/yy	.	4f/yy	.	4ryy	4ryy	.	4ryy	4ryy	.	4ryy	4ryy	.
8ryy	.	8C\Lyy	.	.	.	.	.	.	.	.	.	.	.	.	.	.	.	.
!LO:TX:a:t=arco	!LO:DY:b:rj	!	!	!	!	!	!	!	!	!	!	!	!	!	!	!	!LO:TX:a:t=(&colon;Gr. j&colon;)	!
*	*	*	*	*	*	*	*	*	*	*	*	*	*	*ped	*	*	*	*
8ryy	ff	8F\Jyy	.	8ryy	.	8ryy	.	8ryy	.	8ryy	8ryy	.	8ryy	8ryy	.	8ryy	8ryy	.
!	!	!	!	!	!	!	!	!	!	!	!	!	!LO:CL:ed	!	!	!	!	!
*	*	*	*	*	*	*	*	*	*	*	*	*	*clefF4	*	*	*	*clefG2	*
!	!	!LO:TX:a:t=arco	!LO:DY:b:rj	!	!LO:DY:b:rj	!	!LO:DY:b:rj	!	!LO:DY:b:rj	!	!	!LO:DY:b:rj	!	!	!LO:DY:b:rj	!	!	!LO:DY:b:rj
8C|</yy	.	8Cyy 8CC/yy	ff	16.fLLyy 16.A-\yy	ff	16.a-LLyy 16.c/yy	ff	16.cc\LLyy	ff	8CC/yy	8C|</yy	ff	16.cLLyy 16.A-\yy	16.ccLLyy 16.a-yy 16.f\yy	ff	16.FLLyy 16.C/yy	16.ccLLyyyy 16.a-yy 16.f\yy	ff
.	.	.	.	32fJJkyyyy 32A-\yy	.	32a-JJkyy 32c/yy	.	32ff\JJkyy	.	.	.	.	32cJJkyy 32A-\yy	32ffJJkyy 32a-yy 32f\yy	.	32FJJkyy 32FF/yy	32ffJJkyy 32a-yy 32f\yy	.
=46	=46	=46	=46	=46	=46	=46	=46	=46	=46	=46	=46	=46	=46	=46	=46	=46	=46	=46
*	*	*	*	*	*	*	*	*2\right	*	*	*	*	*	*	*	*	*	*
!	!LO:DY:b:t=sffp.:rj	!	!	!	!	!	!	!	!LO:DY:b:t=sffp.	!LO:N:vis=2	!	!	!	!	!	!	!	!
1FFyy	sffp	8FF/Lyy	.	8fyy 8A-\yy	.	2.a-yy 2.c/yy	.	[>2.ff\yy	sffp	2.FFF/yy	8FF/Lyy	.	4.cyy 4.A-\yy	4.ffyy 4.a-yy 4.f\yy	.	4.Fyy 4.FF/yy	4.ffyy 4.a-yy 4.f\yy	.
!	!	!	!	!	!LO:DY:a:t=sffp.:rj	!	!	!	!	!	!	!	!	!	!	!	!	!
.	.	8C^</yy	.	8C^</Lyy	sffp	.	.	.	.	.	8Cyy 8CC^</yy	.	.	.	.	.	.	.
.	.	8F^</Jyy	.	8F^</Jyy	.	.	.	.	.	.	8FJyy 8FF^</yy	.	.	.	.	.	.	.
!	!	!	!	!	!LO:DY:b:rj	!	!	!	!	!	!	!LO:DY:b:t=pp.	!	!	!LO:DY:b:rj	!	!	!
.	.	8ryy	.	8C/yy	p	.	.	.	.	.	16.C/LLyy	pp	16.cLLyy 16.G\yy	16.ccLLyy 16.a-yy 16.f\yy	pp	8ryy	8ryy	.
.	.	.	.	.	.	.	.	.	.	.	32FF/JJkyy	.	32cJJkyy 32G\yy	32ffJJkyy 32a-yy 32f\yy	.	.	.	.
!	!	!LO:TX:b:t=pizzi.	!	!	!	!	!	!	!	!	!	!	!	!	!	!	!	!
.	.	8FF/Lyy	.	8F/yy	.	.	.	.	.	.	8FF'</Lyy	.	4.cyy 4.G\yy	4.ffyy 4.a-yy 4.f\yy	.	2ryy	2ryy	.
.	.	8C/yy	.	8ryy	.	.	.	.	.	.	8C'</yy	.	.	.	.	.	.	.
*	*	*	*	*	*	*	*	*	*	*	*Xped	*	*	*Xped	*	*	*	*
.	.	8F/Jyy	.	8ryy	.	8ryy	.	8ff\]yy	.	8ryyyy	8F'</Jyy	.	.	.	.	.	.	.
!	!	!	!	!	!LO:DY:b:t=pp.:rj	!	!LO:DY:b:t=pp.:rj	!	!LO:DY:b:t=pp.:rj	!	!	!	!	!	!	!	!	!
.	.	8ryy	.	16.F/LLyy	pp	16.a-/LLyy	pp	16.cc\LLyy	pp	8CC/yy	8C/yy	.	16.cLLyy 16.A-\yy	8ryy	.	.	.	.
.	.	.	.	32F/JJkyy	.	32b-/JJkyy	.	32cc\JJkyy	.	.	.	.	32d-JJkyy 32B-\yy	.	.	.	.	.
=47	=47	=47	=47	=47	=47	=47	=47	=47	=47	=47	=47	=47	=47	=47	=47	=47	=47	=47
8FF/yy	.	8FF/Lyy	.	(<8F'</Lyy	.	(<8a-'</Lyy	.	(>8cc'>\Lyy	.	8FFF'</Lyy	8FF'</Lyy	.	8cLyy 8A-'>\yy	8f'</Lyy	.	2ryy	2ryy	.
8ryy	.	8C/yy	.	8F'</yy	.	8g'</yy	.	8b-'>\yy	.	8CC'</yy	8C'</yy	.	8cyy 8B-yy 8G'>\yy	8f'</yy	.	.	.	.
4ryy	.	8FF/Lyy	.	8F'</Lyy	.	8f'</Lyy	.	8a-'>\Lyy	.	8FFF'</Lyyyyyy	8FF'</Lyy	.	8cyy 8A-yy 8F'>\Lyy	8f'</Lyy	.	.	.	.
.	.	8C/JJyy	.	8F'</J)Jyy	.	8g'</J)Jyy	.	8b-'>\J)Jyy	.	8CC'</JJyy	8C'</JJyy	.	8cJyy 8B-yy 8G'>\Jyy	8f'</JJyy	.	.	.	.
4ryy	.	8FF/Lyy	.	4.F/yy	.	4.a-/yy	.	4.cc\yy	.	4.FFF/yy	8FF/Lyy	.	4.cyy 4.A-\yy	4.f/yy	.	4ryy	4ryy	.
.	.	8C/yy	.	.	.	.	.	.	.	.	8C/yy	.	.	.	.	.	.	.
!	!	!	!LO:DY:b	!	!	!	!	!	!	!	!	!LO:DY:b	!	!	!	!	!	!LO:DY:b
8ryy	.	8F/Jyy	ff	.	.	.	.	.	.	.	8F/Jyy	ff	.	.	.	8ryy	8ryy	ff
!	!LO:DY:b:rj	!LO:TX:a:t=arco	!	!	!LO:DY:b:rj	!	!LO:DY:b:rj	!	!LO:DY:b:rj	!	!	!	!	!	!LO:DY:b:rj	!	!	!
*	*	*	*	*	*	*	*	*	*	*	*ped	*	*	*	*	*	*	*
8C'</yy	ff	8Cyy 8CC'</yy	.	16.fLLyy 16.A-\yy	ff	16.fLLyy 16.A-/yy	ff	16.a-\LLyy	ff	8CC/yy	8C'</yy	.	16.cLLyy 16.A-\yy	16.a-LLyy 16.f/yy	ff	16.C/LLyy	16.a-LLyy 16.f/yy	.
.	.	.	.	32fJJkyy 32A-\yy	.	32fJJkyy 32A-/yy	.	32cc\JJkyy	.	.	.	.	32cJJkyy 32A-\yy	32ccJJkyy 32a-yy 32f/yy	.	32FJJkyy 32Cyy 32FF/yy	32ccJJkyy 32a-/yy	.
=48	=48	=48	=48	=48	=48	=48	=48	=48	=48	=48	=48	=48	=48	=48	=48	=48	=48	=48
!	!LO:DY:b:t=ffp.:rj	!	!LO:DY:b:rj	!	!LO:DY:b:rj	!	!LO:DY:b:t=ffp.:rj	!	!LO:DY:b:t=ffp.	!	!	!LO:DY:b:rj	!	!	!LO:DY:b:rj	!	!	!
2.FF/yy	ffp	8FF^</Lyy	ff	8fyy 8A-\yy	sff	[>2.fyy [<2.A-/yy	ffp	[>2.cc\yy	fp	2.FFF/yy	8FF/Lyy	ff	4.cyy 4.A-\yy	4.ccyy 4.a-yy 4.f/yy	ff	4.Fyy 4.Cyy 4.FF/yy	4.ccyy 4.a-yy 4.f/yy	.
.	.	8C^</yy	.	8C^</Lyy	.	.	.	.	.	.	8Cyy 8CC^</yy	.	.	.	.	.	.	.
.	.	8F^</Jyy	.	8F^</Jyy	.	.	.	.	.	.	8FJyy 8FF^</yy	.	.	.	.	.	.	.
!	!	!LO:TX:b:t=pizzi	!	!	!LO:DY:a:rj	!	!	!	!	!	!	!LO:DY:b	!	!	!LO:DY:b:rj	!	!	!
.	.	8ryy	.	8C'</yy	p	.	.	.	.	.	16.C/LLyy	pp	16.cLLyy 16.A-\yy	16.a-LLyy 16.f/yy	pp	8ryy	8ryy	.
.	.	.	.	.	.	.	.	.	.	.	32FF/JJkyy	.	32cJJkyy 32A-\yy	32ccJJkyy 32a-yy 32f/yy	.	.	.	.
.	.	8FF/Lyy	.	8F/yy	.	.	.	.	.	.	8FF'</Lyy	.	4.cyy 4.A-\yy	4.ccyy 4.a-yy 4.f/yyyyyy	.	2ryy	2ryy	.
.	.	8C/yy	.	8ryy	.	.	.	.	.	.	8C'</yy	.	.	.	.	.	.	.
!	!	!	!LO:DY:b	!	!	!	!	!	!	!	!	!	!	!	!	!	!	!
4ryy	.	8F/Jyy	p	8ryy	.	8f]yy 8A-/]yy	.	8cc\]yy	.	8ryy	8F'</Jyy	.	.	.	.	.	.	.
!	!	!	!	!	!LO:DY:b:rj	!	!LO:DY:b:rj	!	!LO:DY:b	!	!	!	!	!	!	!	!	!
.	.	8CC/yy	.	16.c\LLyy	p	(<[<8f/yy	p	16.a-/LLyy	p	8AAA-/yy	8C/yy	.	16.cLLyy 16.A-\yy	8ryyyy	.	.	.	.
.	.	.	.	32d-\JJkyy	.	.	.	32b-/JJkyy	.	.	.	.	32d-JJkyy 32B-\yy	.	.	.	.	.
=49	=49	=49	=49	=49	=49	=49	=49	=49	=49	=49	=49	=49	=49	=49	=49	=49	=49	=49
*M2/4	*	*M2/4	*	*M2/4	*	*M2/4	*	*M2/4	*	*M2/4	*M2/4	*	*M2/4	*M2/4	*	*M2/4	*M2/4	*
2ryy	.	8FF/Lyy	.	(<8c'</Lyy	.	8f/L]yy	.	(<8a-'</Lyy	.	8FFF/Lyy	8FF/Lyy	.	8cLyy 8A-'>\yy	2ryy	.	2ryy	2ryy	.
.	.	8BB-/yy	.	8B-'</yy	.	8d-'</yy	.	8g-X'</yyyy	.	8BBB-/yy	8BB-/yy	.	8d-yy 8B-\yy	.	.	.	.	.
.	.	8C/Jyy	.	8A-'</Lyy	.	8c'</Lyy	.	8f'</Lyy	.	8CC/Lyy	8C/Lyy	.	8A-yy 8F'>\Lyy	.	.	.	.	.
!	!	!LO:TX:b:t=arco.	!	!	!	!	!	!	!	!	!LO:TX:b:t=42:color=blue	!	!LO:TX:a:t=43:color=blue	!	!	!	!	!
.	.	8C/yy	.	8G'</J)Jyy	.	8B-'</J)Jyy	.	8en'</J)Jyy	.	8CC/JJyy	8C/JJyy	.	8B-Jyy 8G'>\Jyy	.	.	.	.	.
=50	=50	=50	=50	=50	=50	=50	=50	=50	=50	=50	=50	=50	=50	=50	=50	=50	=50	=50
*M4/4	*	*M4/4	*	*M4/4	*	*M4/4	*	*M4/4	*	*M4/4	*M4/4	*	*M4/4	*M4/4	*	*M4/4	*M4/4	*
*met(c)	*	*met(c)	*	*met(c)	*	*met(c)	*	*met(c)	*	*met(c)	*met(c)	*	*met(c)	*met(c)	*	*met(c)	*met(c)	*
!LO:TX:a:t=arco:rj	!LO:HP:a	!	!LO:HP:b	!	!LO:HP:b	!	!LO:HP:b	!	!LO:HP:b	!	!	!	!	!	!	!	!	!
!	!LO:DY:b:rj	!	!LO:DY:b:t=fp.:rj	!	!LO:DY:b:t=fp.:rj	!	!LO:DY:b:t=fp.:rj	!	!LO:DY:b:t=fp.:rj	!	!	!LO:HP:b	!	!	!	!	!LO:TX:b:t=(&colon;8&colon;)	!
[<1D-yy	fp <	8D-\Lyy	fp <	8F/Lyy	fp <	8.A-/Lyy	fp <	8.f/Lyy	fp <	8DD-/yy	8D-\Lyy	<	8A-\yy	8fyy 8d-^</yy	.	2ryy	2ryy	.
.	.	8D-\yy	.	8A-/yy	.	.	.	.	.	8ryy	8A-yy 8D-\yy	.	8ryy	8ryy	.	.	.	.
.	.	.	.	.	.	16d-/Kyy	.	16f/Jkyy	.	.	.	.	.	.	.	.	.	.
.	.	8D-\Lyy	.	8A-/Lyy	.	8.c/Lyy	.	8.a-/Lyy	.	4ryy	8A-yy 8D-\Lyy	.	4ryy	4ryy	.	.	.	.
.	.	8D-\JJyy	.	8A-/JJyy	.	.	.	.	.	.	8A-Jyy 8D-\Jyy	[	.	.	.	.	.	.
.	.	.	.	.	.	16g/JkJyy	.	16a-/Jkyy	[[	.	.	.	.	.	.	.	.	.
*	*	*tremolo	*	*tremolo	*	*	*	*	*	*	*tremolo	*	*	*	*	*	*	*
*	*	*	*	*	*	*	*	*	*	*	*ped	*	*	*ped	*	*	*	*
!	!LO:HP:a	!	!	!	!	!	!	!	!	!	!	!LO:DY:b=2:rj	!	!	!	!	!	!
.	[ >	8D-\Lyy	[	8A-/Lyy	[	8f/Lyy	[	4.dd-/yy	.	2DD-/yy	8A-Lyy 8D-\yy	sf	2ryy	2ryy	.	4.A-yy 4.D-\yy	4.dd-yy 4.f^</yy	.
.	.	8D-\yy	.	8A-/yy	.	8f/yy	.	.	.	.	8A-yy 8D-\yy	.	.	.	.	.	.	.
.	.	8D-\Lyy	.	8A-/Lyy	.	8f/Lyy	.	.	.	.	8A-yy 8D-\Lyy	.	.	.	.	.	.	.
.	.	8D-\JJyy	.	8A-/JJyy	.	8f/JJyy	.	16.dd-\LLyy	.	.	8A-Jyy 8D-\Jyy	.	.	.	.	8ryy	8ryy	.
.	]	.	.	.	.	.	.	32ee-\JJkyy	.	.	.	.	.	.	.	.	.	.
=51	=51	=51	=51	=51	=51	=51	=51	=51	=51	=51	=51	=51	=51	=51	=51	=51	=51	=51
*	*	*	*	*	*	*	*	*	*	*tremolo	*Xped	*	*	*Xped	*	*	*	*
!	!	!	!LO:HP:b	!	!LO:HP:b	!	!LO:HP:b	!	!LO:HP:b	!LO:TX:t=P:problem:4 kropki pod nutą	!	!LO:HP:b	!	!	!	!	!LO:TX:b:t=(Echo)	!
1D-_<yy	]	8D-\Lyy	>	8A-/Lyy	>	(>8g'</Lyy	>	(>8dd-'>\Lyyyy	>	8DD-'</Lyy	8A-Lyy 8D-\yy	>	1ryy	2ryy	.	2ryy	2ryy	.
.	.	8D-\yy	.	8A-/yy	.	8g'</yy	.	8cc'>\yy	.	8DD-'</yy	8A-yy 8D-\yy	.	.	.	.	.	.	.
.	.	8D-\Lyy	.	8A-/Lyy	.	8g'</Lyy	.	8b-'>\Lyy	.	8DD-'</Lyy	8A-yy 8D-\Lyy	.	.	.	.	.	.	.
!	!	!	!	!	!	!	!	!	!	!	!LO:TX:a:t=(Echo)	!	!	!	!	!	!	!
.	.	8D-\JJyy	.	8A-/JJyy	]	8g'</J)Jyy	]	8cc'>\JJyy	.	8DD-'</JJyy	8A-yy 8D-\Jyy	.	.	.	.	.	.	.
*	*	*	*	*Xtremolo	*	*	*	*	*	*Xtremolo	*	*	*	*	*	*	*	*
.	.	8D-\Lyy	]	8A-/Lyy	.	8f/Lyy	.	(>4dd-\)yy	]	2DD-/yy	8A-yy 8D-\Lyy	.	.	4ryy	.	4ryy	4ryy	.
.	.	8D-\yy	.	8A-/yy	.	8f'</yy	.	.	.	.	8A-Jyy 8D-\Jyy	.	.	.	.	.	.	.
!	!	!	!	!	!	!	!	!	!	!	!	!	!	!LO:TX:a:t=(Echo)	!	!	!	!LO:DY:b
.	.	8D-\Lyy	.	8A-/Lyy	.	8f'</Jyy	.	8a-\)yy	.	.	8ryy	]	.	8ryy	.	8ryy	8ryy	pp
*	*	*	*	*	*	*	*	*	*	*	*Xtremolo	*	*	*	*	*	*	*
!	!	!	!	!	!	!	!	!	!	!	!	!LO:DY:b:t=pp.:rj	!	!	!LO:DY:b:rj	!	!	!
.	.	8D-\JJyy	.	8A-/JJyy	.	8A-/yy	.	8ryy	.	.	16.A-\LLyy	pp	.	16.a-LLyy 16.f/yy	pp	16.A-LLyy 16.F\yy	16.a-LLyy 16.f/yy	.
*	*	*Xtremolo	*	*	*	*	*	*	*	*	*	*	*	*	*	*	*	*
.	.	.	.	.	.	.	.	.	.	.	32B-yy 32G\JJkyy	.	.	32b-JJkyy 32g/yy	.	32B-JJkyy 32G\yy	32b-JJkyy 32g/yy	.
=52	=52	=52	=52	=52	=52	=52	=52	=52	=52	=52	=52	=52	=52	=52	=52	=52	=52	=52
*M2/4	*	*M2/4	*	*M2/4	*	*M2/4	*	*M2/4	*	*M2/4	*M2/4	*	*M2/4	*M2/4	*	*M2/4	*M2/4	*
!	!	!LO:TX:a:t=Echo	!LO:DY:b:t=pp.	!LO:TX:a:t=(Echo)	!LO:DY:b:rj	!LO:TX:a:t=(Echo.)	!LO:DY:b:rj	!	!	!	!	!	!	!	!	!	!	!
2D-\_<yy	.	(>8D-'>\Lyy	pp	(<8A-'</Lyy	pp	(<8c'</Lyy	pp	2ryy	.	8AA-'</Lyy	8cLyy 8A-\yy	.	2ryy	(>8ccLyy 8a-'</yy	.	8cLyy 8A-\yy	(<8ccLyy 8a-'</yy	.
.	.	8D-'>\yy	.	8B-'</yy	.	8d-'</yy	.	.	.	8AA-'</yy	8B-yy 8G-X\yy	.	.	8b-yy 8g-X'</yy	.	8B-yy 8G-X\yy	8b-yy 8g-X'</yy	.
.	.	8D-'>\Lyy	.	8Bn'</Lyy	.	8dn'</Lyy	.	.	.	8AA-'</Lyy	8A-yy 8F\Lyy	.	.	8a-yy 8f'</Lyy	.	8A-yy 8F\Lyy	8a-yy 8f'</Lyy	.
.	.	8D-'>\J)Jyy	.	8c'</J)Jyy	.	8e-'</J)Jyy	.	.	.	8AA-'</JJyy	8G-Jyy 8E-\Jyy	.	.	8g-Jyy 8e-'</)Jyy	.	8G-Jyy 8E-\Jyy	8g-Jyy 8e-'</)Jyy	.
=53	=53	=53	=53	=53	=53	=53	=53	=53	=53	=53	=53	=53	=53	=53	=53	=53	=53	=53
*M4/4	*	*M4/4	*	*M4/4	*	*M4/4	*	*M4/4	*	*M4/4	*M4/4	*	*M4/4	*M4/4	*	*M4/4	*M4/4	*
*met(c)	*	*met(c)	*	*met(c)	*	*met(c)	*	*met(c)	*	*met(c)	*met(c)	*	*met(c)	*met(c)	*	*met(c)	*met(c)	*
*	*	*tremolo	*	*	*	*	*	*	*	*	*tremolo	*	*	*	*	*	*	*
*	*	*	*	*	*	*	*	*	*	*	*	*	*	*	*	*	*	*^
!	!	!	!LO:HP:b	!	!LO:DY:b:rj	!	!LO:HP:b	!	!	!	!	!	!	!	!	!	!	!	!
!	!	!	!	!	!	!	!	!	!LO:HP:b	!	!	!LO:HP:b	!	!	!	!	!	!	!
!	!LO:HP:b	!	!LO:DY:b:rj	!	!LO:HP:b	!	!LO:DY:b:rj	!	!LO:DY:b:rj	!	!	!LO:DY:b:t=fp.:rj	!	!	!	!	!	!	!LO:DY:b:rj
8D-'>\L]yy	<	8D-\Lyy	fp <	8.d-\Lyy	fp <	8.A-/Lyy	fp <	8.f/Lyy	fp <	2ryy	8A-Lyy 8D-\yy	fp <	1ryy	8fyy 8d-/yy	.	8A-yy 8Fyy 8D-\yy	8fyy 8d-/yy	.	sf
8D-'>\yy	.	8D-\yy	.	.	.	.	.	.	.	.	8A-yy 8D-\yy	.	.	8ryyyy	.	8ryy	8ryy	.	.
.	.	.	.	16d-\Kyy	.	16fKyy 16A-/yy	.	16f/Kyy	.	.	.	.	.	.	.	.	.	.	.
!	!	!	!	!	!	!LO:SIC:v:s=g-	!	!	!	!	!	!	!	!	!	!	!	!	!
8D-'>\Lyy	.	8D-\Lyy	.	8.e-yy 8.c\Lyy	.	8.gyy 8.A-/yy	.	8.a-/Lyy	.	.	8A-yy 8D-\Lyy	.	.	4ryy	.	4ryy	4ryy	.	.
*	*	*	*	*	*	*	*	*	*	*	*ped	*	*	*	*	*	*	*	*
8D-'>\JJyy	[	8D-\JJyy	[	.	.	.	.	.	.	.	8A-Jyy 8D-\Jyy	.	.	.	.	.	.	.	.
!	!	!	!	!	!	!LO:SIC:v:s=g-	!	!	!	!	!	!	!	!	!	!	!	!	!
.	.	.	.	16e-Jkyy 16c\Jyy	[	16gJkyy 16A-/yy	[	16a-/JkJyy	[	.	.	[	.	.	.	.	.	.	.
*	*	*	*	*2\right	*	*	*	*	*	*	*	*	*	*	*	*	*	*	*
*	*	*	*	*tremolo	*	*tremolo	*	*	*	*	*	*	*	*ped	*	*	*	*	*
!	!LO:DY:b:rj	!	!LO:DY:b	!	!LO:DY:b	!	!LO:DY:b:rj	!	!LO:DY:b	!	!	!LO:DY:b	!	!	!	!	!	!LO:DY:b	!LO:DY:b=2:rj
2D-\yy	f	8D-\Lyy	f	8d-\Lyy	f	8fLyy 8A-/yy	f	4.ff\yy	f	[<2DD-^</yy	8A-Lyy 8D-\yy	f	.	2ryy	.	4.D-yy 4.DD-/yy	4.ffyy 4.a-yy 4.f\yy	sf	sf
.	.	8D-\yy	.	8d-\yy	.	8fyy 8A-/yy	.	.	.	.	8A-yy 8D-\yy	.	.	.	.	.	.	.	.
.	.	8D-\Lyy	.	8d-\Lyy	.	8fyy 8A-/Lyy	.	.	.	.	8A-yy 8D-\Lyy	.	.	.	.	.	.	.	.
.	.	8D-\JJyy	.	8d-\JJyy	.	8fJyy 8A-/Jyy	.	16.ee-\Lyy	.	.	8A-Jyy 8D-\Jyy	.	.	.	.	8ryy	8ryy	.	.
.	.	.	.	.	.	.	.	32dd-\Jkyy	.	.	.	.	.	.	.	.	.	.	.
*	*	*	*	*	*	*	*	*	*	*	*	*	*	*	*	*	*	*v	*v
=54	=54	=54	=54	=54	=54	=54	=54	=54	=54	=54	=54	=54	=54	=54	=54	=54	=54	=54
*	*	*	*	*	*	*	*	*	*	*	*Xped	*	*	*Xped	*	*	*	*
!	!LO:HP:b	!	!LO:HP:b	!	!LO:HP:b	!LO:SIC:v:s=g-	!LO:HP:b	!	!LO:HP:b	!LO:TX:t=P:problem:tego dźwięku nie ma, ale nie da się inaczej zapisać poprzedzającej ligatury	!	!	!	!	!	!	!	!
!	!	!	!	!	!	!	!	!	!	!	!	!LO:HP:b	!	!	!	!	!	!
(>8D-'>\Lyy	>	8D-/Lyy	>	8e-\Lyy	>	8gLyy 8A-/yy	>	(>8dd-'>\Lyy	>	1DD-]yy	8A-Lyy 8D-\yy	>	1ryy	2ryy	.	1ryy	1ryy	.
!	!	!	!	!	!	!LO:SIC:v:s=g-	!	!	!	!	!	!	!	!	!	!	!	!
8D-'>\yy	.	8D-/yy	.	8e-\yy	.	8gyy 8A-/yy	.	8cc'>\yy	.	.	8A-yy 8D-\yy	.	.	.	.	.	.	.
!	!	!	!	!	!	!LO:SIC:v:s=g-	!	!	!	!	!	!	!	!	!	!	!	!
8D-'>\Lyy	.	8D-/Lyy	.	8e-\Lyy	.	8gyy 8A-/yy	.	8b-'>\Lyy	.	.	8A-yy 8D-\Lyy	.	.	.	.	.	.	.
!	!	!	!	!	!	!LO:SIC:v:s=g-	!	!	!	!	!	!	!	!	!	!	!	!
8D-'>\J)Jyy	]	8D-/JJyy	]	8e-\JJyy	]	8gJyy 8A-/yy	]	8cc'>\J)Jyy	]	.	8A-Jyy 8D-\Jyyyy	.	.	.	.	.	.	.
*	*	*	*	*Xtremolo	*	*Xtremolo	*	*	*	*	*	*	*	*	*	*	*	*
2D-\yy	.	8D-/Lyy	.	8d-\Lyy	.	8fLyy 8A-/yy	.	(>4dd-\yy	.	.	2ryy	]	.	4ryy	.	.	.	.
.	.	8D-/yy	.	8d-\yy	.	8fyy 8A-/yy	.	.	.	.	.	.	.	.	.	.	.	.
.	.	8D-/Lyy	.	8d-\Lyy	.	8fyy 8A-/Lyy	.	8a-/L)yy	.	.	.	.	.	8ryy	.	.	.	.
*	*	*	*	*	*	*	*	*	*	*	*	*	*ped	*	*	*	*	*
.	.	8D-/JJyy	.	8cn\JJyy	.	8A-/JJyy	.	8f'</Jyy	.	.	.	.	.	8f'</yy	.	.	.	.
!	!	!	!	!	!	!	!	!	!	!	!	!	!LO:CL:ed	!	!	!	!	!
*	*	*Xtremolo	*	*	*	*	*	*	*	*	*Xtremolo	*	*clefG2	*	*	*	*	*
=55	=55	=55	=55	=55	=55	=55	=55	=55	=55	=55	=55	=55	=55	=55	=55	=55	=55	=55
*	*	*	*	*	*	*	*	*	*	*	*ped	*	*	*	*	*	*	*
!	!	!	!	!	!	!	!	!	!	!	!	!LO:DY:b:rj	!	!	!LO:DY:b:rj	!	!	!
8D-'</Lyy	.	8D-/Lyy	.	8.Bn^</Lyy	.	8.fLyy 8.A-^</yy	.	8.f^</Lyy	.	8DD-/Lyy	8A-Lyy 8Fyy 8D-\yy	p	2Bn^>/yy	8.f^</Lyy	p	1ryy	1ryy	.
!	!LO:HP:a:t=cres.	!	!	!	!	!	!	!	!	!	!	!	!	!	!	!	!	!
8D-'</yy	<	8D-/yy	.	.	.	.	.	.	.	8DD-/yy	8A-yy 8Fyy 8D-\yy	.	.	.	.	.	.	.
.	.	.	.	16B/Kyy	.	16fKyy 16A-/yy	.	16f/Kyy	.	.	.	.	.	16f/Kyy	.	.	.	.
!	!	!	!	!	!LO:HP:b:t=cres.	!	!	!	!LO:HP:b:t=cres.	!	!	!LO:HP:b:t=cres&colon;	!	!	!LO:HP:b:t=cres.	!	!	!
8D-'</Lyy	.	8D-/Lyy	.	8B'</yy	<	8fyy 8A-'</Lyy	.	8f'</Lyy	<	8DD-/Lyy	8A-yy 8Fyy 8D-\Lyy	<	.	8f'</Lyy	<	.	.	.
*	*	*	*	*	*	*	*	*	*	*	*	*	*Xped	*	*	*	*	*
8D-'</JJyy	.	8D-/JJyy	.	8B|</Jyy	.	8fJyy 8A-'</Jyy	.	8f'</JJyy	.	8DD-/JJyy	8A-Jyy 8Fyy 8D-\Jyy	.	.	8f'</JJyy	.	.	.	.
*	*	*	*	*	*	*	*	*	*	*	*Xped	*	*	*	*	*	*	*
8C'</Lyy	.	8C/Lyy	.	8.c^</Lyy	.	8.fLyy 8.A-/yy	.	8.a-^</Lyy	.	8CC/Lyy	8A-Lyy 8Fyy 8C\yy	.	2c/yy	8.a-Lyy 8.f^</yy	.	.	.	.
8C'</yy	.	8C/yy	.	.	.	.	.	.	.	8CC/yy	8A-yy 8Fyy 8C\yy	.	.	.	.	.	.	.
.	.	.	.	16c/Kyy	.	16fKyy 16A-/yy	.	16a-/Kyy	.	.	.	.	.	16a-Kyy 16f/yy	.	.	.	.
8C'</Jyy	.	8C/Jyy	.	8c/Jyy	.	8fJyy 8A-/yy	.	8a-/Jyy	.	8CC/Jyy	8A-Jyy 8Fyy 8C\yy	.	.	8a-Jyy 8f/yy	.	.	.	.
!	!	!	!	!	!	!	!	!	!	!	!LO:TX:b:t=(x):rj	!	!	!	!	!	!	!
16.A-^>\LLyy	.	8ryy	.	16c^</LLyy	.	16.f^</LLyy	.	16.a-^</LLyy	.	16AA-^</LLyy	16cLLyy 16A-^>\yy	.	.	16a-LLyy 16f^</yy	.	.	.	.
.	.	.	.	16B|</JJyy	.	.	.	.	.	16GG|</JJyy	16B-|>JJyy 16G\yy	.	.	16b-JJyy 16g|</yy	.	.	.	.
32G\JJkyy	.	.	.	.	.	32g|</JJkyy	.	32b-|</JJkyy	.	.	.	.	.	.	.	.	.	.
=56	=56	=56	=56	=56	=56	=56	=56	=56	=56	=56	=56	=56	=56	=56	=56	=56	=56	=56
2ryy	.	8F\Lyy	.	8A-\Lyy	.	8a-^</Lyy	.	8cc\Lyy	.	8FF/Lyy	8A-Lyy 8F^>\yy	.	8ryy	8ccLyy 8a-^>\yy	.	4ryy	4ryy	.
.	.	8E-\yy	.	8c\yy	.	8b-yy 8g^</yy	.	8cc\yy	.	8EE-/yy	8Gyy 8E-^>\yy	.	8gLyy 8c/yy	8ccyy 8b-^>\yy	.	.	.	.
!	!	!	!	!	!	!	!	!	!	!	!	!	!	!	!	!	!LO:TX:a:t=(Gr. j.)	!
.	.	8Dn\yy	.	8f\yy	.	8a-^</yy	.	8cc\yy	.	8DDn/yy	8Fyy 8Dn^>\yy	.	8fyy 8c/yy	8ccyy 8a-^>\yy	.	8ryy	8.ryy	.
*	*	*	*	*	*	*	*	*	*	*	*ped	*	*	*ped	*	*	*	*
.	.	16C\Lyy	.	16f\Lyy	.	16a-/Lyy	.	16cc\Lyy	.	16CC/Lyy	16E-Lyy 16C\yy	.	16e-Lyy 16c/yy	16ccLyy 16a-\yy	.	16ryy	.	.
!	!	!	!	!	!	!	!	!	!	!	!	!	!	!	!	!LO:SIC:v:s=Dn	!	!LO:DY:b:rj
.	.	32ryy	.	32ryy	.	32ryy	.	32ryy	.	32ryy	32ryy	.	32ryy	32ryy	.	16A-yy 16Fyy 16D-yy 16BBn\yy	16ffyy 16dd-yy 16a-yy 16f\yy	ff
!	!	!	!LO:DY:b:rj	!	!LO:DY:b	!	!LO:DY:b	!	!LO:DY:b	!	!	!LO:DY:b	!LO:SIC:v:s=dn	!	!	!	!	!
.	.	32BBn\JJkyy	ff	32dd-JJkyy 32d-\yy	fff	32a-/JJkyy	fff	32ffJJkyy 32dd-\yy	fff	32BBnJJkyy 32BBBn/yy	32A-JJkyy 32Fyy 32D\yy	ff	32fJJkyy 32d-/yy	32ffJJkyy 32ddnyy 32a-\yy	.	.	.	.
!	!	!	!	!LO:TX:t=P:problem:mixed beam	!	!	!	!	!LO:HP:b	!LO:TX:a:t=(&colon; Echo.)	!	!	!LO:SIC:v:s=dn	!	!LO:DY:b:t=sfff:rj	!LO:SIC:v:s=Dn	!	!LO:HP:b
[<2BBn/yy	.	8BB\Lyy	.	8dd-Lyy 8d-\yy	.	8a-/Lyy	.	[>4ffyy [>4dd-\yy	>	4..BByy 4..BBB/yy	4..A-yy 4..Fyy 4..D\yy	.	4.fyy 4.d-/yy	4.ffyy 4.ddyy 4.a-\yy	sf	[>4A-yy [>4Fyy [>4D-yy [>4BB\yy	[>4ffyy [>4dd-yy [<4a-yy [<4f\yy	>
!	!LO:HP:a	!	!	!	!	!	!	!	!	!	!	!	!	!	!	!	!	!
.	>	8dn^>\yy	.	8f^>\yy	.	8a-^</yy	.	.	.	.	.	.	.	.	.	.	.	.
!	!	!	!	!	!	!	!	!	!	!	!	!	!	!	!	!LO:SIC:v:s=Dn	!	!
.	.	8D^>\Lyy	.	8F^</Lyy	.	8A-^</Lyy	.	8ff]yy 8dd-\]yy	]	.	.	.	.	.	.	16A-]yy 16F]yy 16D-]yy 16BB\]yy	16ff]yy 16dd-]yy 16a-]yy 16f\]yy	]
.	.	.	.	.	.	.	.	.	.	.	.	.	.	.	.	16ryy	16ryy	.
!	!	!	!	!	!	!	!	!	!	!	!	!	!LO:TX:a:t=(&colon;Echo.)	!	!	!	!	!
.	.	8d^>\JJyy	.	8f^>\JJyy	.	8a-^</JJyy	.	8r	.	.	.	.	8ryy	16ryy	.	8ryy	8ryy	.
!	!	!	!	!	!	!	!	!	!	!	!	!LO:DY:b:rj	!	!	!	!	!	!
.	.	.	.	.	.	.	.	.	.	16BByy 16BBB/yy	16A-yy 16Fyy 16D\yy	p	.	32ryy	.	.	.	.
!	!	!	!	!	!	!	!	!	!	!	!	!	!	!	!LO:DY:b:rj	!	!	!
.	]	.	.	.	.	.	.	.	.	.	.	.	.	32fyy 32d-/yy	p	.	.	.
=57	=57	=57	=57	=57	=57	=57	=57	=57	=57	=57	=57	=57	=57	=57	=57	=57	=57	=57
!	!LO:DY:b	!	!LO:DY:b	!	!	!	!	!	!	!	!LO:SIC:v:s=Dn	!	!	!	!	!	!	!
2BB/]yy	p	8ryy	p	8ryy	.	8ryy	.	4ryy	.	4.BBnyy 4.BBBn^</yy	4A-yy 4Fyy 4D-^>\yy	.	1ryy	4fyy 4d-^</yy	.	1ryy	1ryy	.
!	!	!	!	!	!	!	!LO:DY:a	!	!	!	!	!	!	!	!	!	!	!
.	.	8A-'>\Lyy	.	8dn'>\Lyy	.	8f'</Lyy	pp	.	.	.	.	.	.	.	.	.	.	.
.	.	8Dn'>\Lyy	.	8F'>\Lyy	.	8A-'</yy	.	8ryy	.	.	8ryy	.	.	4ryy	.	.	.	.
!	!	!	!	!	!	!	!	!	!LO:DY:a:rj	!	!	!	!	!	!	!	!	!
.	.	8A-'>\JJyy	.	8d'>\JJyy	.	16.f'</Lyy	.	16.a-/LLyy	pp	8BB/yy	16.A-LLyy 16.F\yy	.	.	.	.	.	.	.
.	.	.	.	.	.	32g/JJkyy	.	32b-/JJkyy	.	.	32B-JJkyy 32G\yy	.	.	.	.	.	.	.
!	!LO:DY:b:rj	!	!LO:DY:b:rj	!	!LO:DY:b:rj	!	!	!	!	!	!	!	!	!	!	!	!	!
8BBny'</Lyy	pp	8D'>\Lyy	pp	8F'>\Lyy	pp	8.f^</Lyy	.	8.a-^</Lyy	.	8BBB/Lyy	8.A-Lyy 8.F\yy	.	.	2ryy	.	.	.	.
8BB'</yy	.	8F'>\yy	.	8d'>\yy	.	.	.	.	.	8BB/yy	.	.	.	.	.	.	.	.
.	.	.	.	.	.	16en/Kyy	.	16g/Kyy	.	.	16GJkyy 16En\yy	.	.	.	.	.	.	.
8BB'</Lyy	.	8D'>\Lyy	.	8F'>\Lyy	.	8.f^</Lyy	.	8.a-^</Lyy	.	8BBB/Lyy	8.A-Lyy 8.F\yy	.	.	.	.	.	.	.
8BB'</JJyy	.	8F'>\JJyy	.	8d'>\JJyy	.	.	.	.	.	8BB/JJyy	.	.	.	.	.	.	.	.
.	.	.	.	.	.	16e/JkJyy	.	16g/JkJyy	.	.	16GJkyy 16E\yy	.	.	.	.	.	.	.
=58	=58	=58	=58	=58	=58	=58	=58	=58	=58	=58	=58	=58	=58	=58	=58	=58	=58	=58
*tremolo	*	*tremolo	*	*tremolo	*	*	*	*	*	*	*	*	*	*	*	*	*	*
!LO:TX:t=P:problem:4 kropki pod nutą	!	!LO:TX:t=P:problem:4 kropki nad nutą	!	!LO:TX:t=P:problem:4 kropki pod nutą	!	!	!	!	!	!LO:SIC:v:s=BBBn	!	!	!	!	!	!	!	!
8BBn'</Lyy	.	8Dn'>\Lyy	.	8F'</Lyy	.	8f'</Lyy	.	8a-'</Lyy	.	8BBB-/Lyy	8A-yy 8F'>\yy	.	1ryy	4ryy	.	2ryy	4ryy	.
!	!	!	!	!	!	!	!	!	!	!LO:SIC:v:s=BBn	!	!	!	!	!	!	!	!
!	!	!	!	!	!	!	!	!	!	!LO:SIC:v:s=BBBn	!	!	!	!	!	!	!	!
8BB'</yy	.	8D'>\yy	.	8F'</yy	.	8f^</Jyy	.	8a-^</Jyy	.	8BB-yy 8BBB-/yy	4A-yy 4F\yy	.	.	.	.	.	.	.
!	!	!	!	!	!	!	!	!	!	!LO:SIC:v:s=BBBn	!	!	!	!	!	!	!	!
!	!	!	!	!	!	!	!	!	!	!LO:SIC:v:s=BBn	!	!	!	!	!	!	!LO:TX:a:t=(&colon;8&colon;)	!
8BB'</Lyy	.	8D'>\Lyy	.	8F'</Lyy	.	4ryy	.	4ryy	.	8BB-yy 8BBB-/yy	.	.	.	8ryy	.	.	8ryy	.
!	!	!	!	!	!	!	!	!	!	!LO:SIC:v:s=BBBn	!	!	!	!	!	!	!	!
!	!	!	!	!	!	!	!	!	!	!LO:SIC:v:s=BBn	!	!LO:DY:b	!	!	!LO:DY:b	!	!	!LO:DY:b:t=pp.
8BB'</JJyy	.	8D'>\JJyy	.	8F'</JJyy	.	.	.	.	.	8BB-Jyy 8BBB-/yy	16.A-LLyy 16.F\yy	ppp	.	16.a-LLyy 16.f/yy	ppp	.	16.a-LLyy 16.f/yy	pp
*Xtremolo	*	*Xtremolo	*	*Xtremolo	*	*	*	*	*	*	*	*	*	*	*	*	*	*
.	.	.	.	.	.	.	.	.	.	.	32B-JJkyy 32G\yy	.	.	32b-JJkyy 32g/yy	.	.	32b-JJkyy 32g/yy	.
!	!LO:DY:b:rj	!	!LO:DY:b:rj	!	!	!	!	!	!	!	!	!	!	!	!	!	!	!
(<8C/Lyy	ppp	(>8A-\Lyy	ppp	(>8E-/Lyy	ppp	2ryy	.	2ryy	.	(<8CLyy 8CC/yy	(>8cLyy 8A-\yy	.	.	(<8ccLyy 8a-^</yy	.	(>8A-Lyy 8E-yy 8C\yy	(<8ccLyy 8a-/yy	.
8D-/yy	.	8B-\yy	.	8F-X/yy	.	.	.	.	.	8D-yy 8DD-/yy	8B-yy 8G\yy	.	.	8b-yy 8g/yy	.	8B-yy 8F-Xyy 8D-\yy	8b-yy 8g/yy	.
8Dn/)Lyy	.	8Bn\)Lyy	.	8Fn/)Lyy	.	.	.	.	.	8Dnyy 8DDn/Lyy	8A-yy 8F\)Lyy	.	.	8a-yy 8f/)Lyy	.	8Bnyy 8Fnyy 8Dn\Lyy	8a-yy 8f/)Lyy	.
!	!	!LO:TX:t=P:problem:bemol dorysowany niebieską kredką	!	!	!	!	!	!	!	!	!	!	!	!	!	!	!	!
8En'</JJyy	.	8B-X'>\JJyy	.	8G'</JJyy	.	.	.	.	.	8EnJyy 8EEn/)Jyy	8B-Jyy 8G\Jyy	.	.	8gJyy 8d-/Jyy	.	8B-XJyy 8En\)Jyy	8gJyy 8d-/Jyy	.
=59	=59	=59	=59	=59	=59	=59	=59	=59	=59	=59	=59	=59	=59	=59	=59	=59	=59	=59
!	!	!	!	!LO:TX:b:t=(x):rj	!	!	!	!	!	!	!	!	!	!	!	!	!	!LO:DY:b:rj
8F\yy	.	4.F\yy	.	8A-'</yy	.	8A-/@yy	.	4ryy	.	8Fyy 8FF/yy	8A-\yy	.	4c/yy	4fyy 4c/yy	.	1A-yy 1Fyy	1fyy 1cyy	pp
!LO:TX:b:t=pizzi	!	!	!	!	!	!	!	!	!	!	!	!LO:DY:b	!	!	!	!	!	!
8ryy	.	.	.	(<4A-yy 4C^</yy	.	4A-/@yy	.	.	.	8ryy	4A-yy 4C\yy	p	.	.	.	.	.	.
4F\yy	.	.	.	.	.	.	.	8ryy	.	8FF/yy	.	.	4ryy	4ryy	.	.	.	.
!	!	!	!LO:DY:b:rj	!	!	!	!	!	!LO:DY:b:rj	!	!	!	!	!	!	!	!	!
.	.	16.A-^>\LLyy	p	4A-yy 4C^</yy	.	4A-/@yy	.	16.a-^</LLyy	p	8ryy	4A-yy 4C\yy	.	.	.	.	.	.	.
.	.	32G\JJkyy	.	.	.	.	.	32g/JJkyy	.	.	.	.	.	.	.	.	.	.
!	!	!	!LO:HP:b	!	!	!	!	!	!LO:HP:a	!	!	!	!	!	!	!	!	!
4F\yy	.	8F\Lyy	<	.	.	.	.	8f/Lyy	<	8FF/yy	.	.	2ryy	2ryy	.	.	.	.
.	.	8c\yy	.	4A-yy 4C^</)yy	.	4A-/@yy	.	8cc/yy	.	8ryy	4A-yy 4C\yy	.	.	.	.	.	.	.
4F\yy	.	8A-\Lyy	.	.	.	.	.	8a-/Lyy	.	8FF/yy	.	.	.	.	.	.	.	.
!	!	!	!	!LO:TX:t=P:problem:brak zakończenia łuku	!	!	!LO:DY:a:rj	!	!	!	!	!	!	!	!	!	!	!
.	.	8f\JJyy	[[	(<[<8C^</yy	.	[<8A-^</yy	p	8ff/JJyy	[[	8ryy	[>8A-yy [<8C\yy	.	.	.	.	.	.	.
=60	=60	=60	=60	=60	=60	=60	=60	=60	=60	=60	=60	=60	=60	=60	=60	=60	=60	=60
4F\yy	.	8.e-^>\Lyy	.	8C/])yy	.	8A-/]yy	.	8.ee-^>\Lyy	.	8FF/yy	8A-]yy 8C\]yy	.	1ryy	1ryy	.	[<1Fyy	[>1fyy	.
.	.	.	.	4C/yy	.	4A-/yy	.	.	.	8ryy	4A-yy 4C\yy	.	.	.	.	.	.	.
.	.	16d-\Jkyy	.	.	.	.	.	16dd-\Jkyy	.	.	.	.	.	.	.	.	.	.
4F\yy	.	8c\Lyy	.	.	.	.	.	8cc\yy	.	8FF/yy	.	.	.	.	.	.	.	.
!	!	!	!	!	!	!	!	!LO:TUP:a:problem:klamra łukowa	!	!	!	!	!	!	!	!	!	!
.	.	[>8F\Jyy	.	4C/yy	.	4A-/yy	.	24bn^>\LLyy	.	8ryy	4A-yy 4C\yy	.	.	.	.	.	.	.
.	.	.	.	.	.	.	.	24cc\yy	.	.	.	.	.	.	.	.	.	.
.	.	.	.	.	.	.	.	24dd-\JJyy	.	.	.	.	.	.	.	.	.	.
4F\yy	.	8F\]yy	.	.	.	.	.	8cc|>\yy	.	8FF/yy	.	.	.	.	.	.	.	.
!	!	!	!	!	!	!	!	!LO:TUP:a:problem:klamra łukowa	!	!	!	!	!	!	!	!	!	!
.	.	4F\yy	.	4C/yy	.	4B-/yy	.	24an^>\LLyy	.	8ryy	4B-yy 4D-\yy	.	.	.	.	.	.	.
!	!	!	!	!	!	!	!	!LO:SIC:v:s=b-	!	!	!	!	!	!	!	!	!	!
.	.	.	.	.	.	.	.	24b\yy	.	.	.	.	.	.	.	.	.	.
.	.	.	.	.	.	.	.	24cc\JJyy	.	.	.	.	.	.	.	.	.	.
4F\yy	.	.	.	.	.	.	.	8b|>\yy	.	8FF/yy	.	.	.	.	.	.	.	.
!	!	!	!	!	!	!	!	!LO:TUP:b:problem:klamra łukowa	!	!	!	!	!	!	!	!	!	!
.	.	[>8F\yy	.	[<8Dn/yy	.	[<8Bn/yy	.	24g^</LLyy	.	8ryy	[>8Bnyy [>8Dn\yy	.	.	.	.	.	.	.
.	.	.	.	.	.	.	.	24a-X/yy	.	.	.	.	.	.	.	.	.	.
!	!	!	!	!	!	!	!	!LO:SIC:v:s=b-	!	!	!	!	!	!	!	!	!	!
.	.	.	.	.	.	.	.	24b/JJyy	.	.	.	.	.	.	.	.	.	.
=61	=61	=61	=61	=61	=61	=61	=61	=61	=61	=61	=61	=61	=61	=61	=61	=61	=61	=61
4F\yy	.	8F\]yy	.	8D/]yy	.	8B/]yy	.	8a-'</yy	.	8FF/yy	8B]yy 8D\]yy	.	2ryy	4ryy	.	2.F\_>yy	(<4.f/]yy	.
.	.	4F\yy	.	4E-/yy	.	4c/yy	.	4a-^</yy	.	8ryy	4cyy 4E-\yy	.	.	.	.	.	.	.
4F\yy	.	.	.	.	.	.	.	.	.	8FF/yy	.	.	.	8ryy	.	.	.	.
!	!	!	!	!	!	!	!	!	!LO:HP:b	!	!	!	!	!	!	!	!	!
.	.	.	.	.	.	.	.	8qb-/yy	<	.	.	.	.	8qb-/yy	.	.	.	.
!	!	!	!	!	!	!	!LO:HP:b	!	!	!	!	!LO:HP:b:color=blue	!	!	!	!	!	!
.	.	(>8B-\yy	.	8En/yy	.	(<8d-X/yy	<	16.a-/LLyy	.	8ryy	(>8d-Xyy 8B-yyy 8En\yy	<	.	16.a-/LLyy	.	.	8d-X/yy	.
!	!	!	!	!	!	!	!	!	!	!	!	!	!	!	!LO:HP:a:color=blue	!	!	!
.	.	.	.	.	.	.	.	32g/JJkyy	.	.	.	.	.	32g/JJkyy	<	.	.	.
!LO:TX:b:t=arco	!LO:DY:b:rj	!	!LO:HP:b	!	!	!	!	!	!	!	!LO:N:vis=4	!	!	!	!	!	!	!
8F\yy	p	8A-\L)yy	<	8F/Lyy	.	8A-/L)yy	.	8f/Lyy	.	8FF/yy	8cyy 8A-yy 8F\)yy	.	4ryy	8f/Lyy	.	.	8f'</L)yy	.
8ryy	.	(>8c\yy	.	8cJyy 8C/yy	.	(<8a-/yy	.	(<8cc/yy	.	8ryy	4cyy 4A-yy 4F\yy	.	.	(<8ccyy 8a-/yy	.	.	(<8a-yy 8c/yy	.
!	!LO:HP:b	!	!	!	!	!	!	!	!	!	!	!	!	!	!	!	!	!
8F'>\Lyy	<	8A-\J)yy	[[	8ryy	.	8f/J)yy	.	8a-/J)yy	[	8FF'</Lyy	.	[	8ryy	8a-Jyy 8f/)yy	.	8F\]yy	8f/J)yy	.
!	!	!	!	!	!	!	!	!	!	!LO:S:s=1:note:problem:note-level slur	!	!	!	!	!	!	!	!
!	!	!	!LO:DY:b	!	!LO:DY:b	!	!	!	!	!LO:S:s=2:note:problem:note-level slur	!	!	!	!	!LO:DY:b	!	!	!
(>8F\Jyy	[[	(>8A-\yy	f	8a-'>\yy	f	8ff|>\yy	[	8aa-|>\yy	.	(<(<8FFJyy 8FFF/yy	8cyy 8A-yy 8F\yy	.	8a-yy 8f'</yy	8aa-yy 8ff'>\yy	[ f	8Fyy 8FF/yy	8a-yy 8c/yy	.
=62	=62	=62	=62	=62	=62	=62	=62	=62	=62	=62	=62	=62	=62	=62	=62	=62	=62	=62
*	*	*	*	*	*	*	*	*	*	*	*ped	*	*	*ped	*	*	*	*
.	.	.	.	.	.	.	.	.	.	.	.	.	.	.	.	.	.	.
!	!	!	!	!	!	!	!	!	!	!LO:S:s=1:note:problem:note-level slur	!	!	!	!	!	!	!	!LO:DY:b:rj
!	!LO:DY:b:rj	!	!	!	!	!	!LO:DY:b:rj	!	!LO:DY:b:rj	!LO:S:s=2:note:problem:note-level slur	!	!LO:DY:b	!	!	!	!	!	!LO:HP:b
8G\L)yy	f	8B-\L)yy	.	8.g^>\Lyy	.	8.ee-^>\Lyy	f	8.gg^>\Lyy	f	8GGL)yy 8GGG/)yy	(>8B-\Lyy	f	8.gLyy 8.e-^</yy	8.ggLyy 8.ee-^>\yy	.	(>4Gyy 4E-yy (<4GG\yy	(>4b-yy 4e-yy (<4B-/yy	> sf
(>8G\yy	.	8E-'>\yy	.	.	.	.	.	.	.	(<8GGyy 8GGG/yy	8E-\)yy	.	.	.	.	.	.	.
*	*	*	*	*	*	*	*	*	*	*	*Xped	*	*	*Xped	*	*	*	*
.	.	.	.	16f\Kyy	.	16dd-\Kyy	.	16ff\Kyy	.	.	.	.	16fJkyy 16d-/yy	16ffJkyy 16dd-\yy	.	.	.	.
!	!	!	!LO:HP:b:t=dimin..	!	!	!	!	!	!	!	!	!LO:HP:b	!	!LO:TX:a:t=(x)	!	!	!	!
8A-\)Lyy	.	8cyy 8E-\Lyy	>	8e-\Jyy	.	8cc\Jyy	.	8ee-\Jyy	.	8AA-yy 8AAA-/)Lyy	8E-\Jyy	>	8e-yy 8c/yy	8ee-yy 8cc\yy	.	8A-yy 8E-yy 8AA-\))yy	8cc'<yy 8e-yy 8c/))yy	]
!	!	!	!	!LO:TUP:a:problem:klamra łukowa	!	!LO:TUP:a:problem:klamra łukowa	!	!LO:TUP:a:problem:klamra łukowa	!LO:HP:b:t=diminuendo	!	!	!	!LO:TUP:a:problem:klamra łukowa	!LO:TUP:a:problem:klamra łukowa	!	!	!	!
(>8B-\JJyy	.	(>8B-\JJyy	.	24e-\LLyy	.	24cc^>\LLyy	.	24ee-^>\LLyy	>	(<8BB-Jyy 8BBB-/Jyy	(>8B-\yy	.	24cc\LLyy	24ee-\LLyy	>	8ryy	8ryy	.
.	.	.	.	24d-\yy	.	24b-\yy	.	24dd-\yy	.	.	.	.	24b-\yy	24dd-\yy	.	.	.	.
!	!	!	!	!	!	!	!	!	!	!	!	!	!	!	!LO:HP:b:t=dimin.	!	!	!
.	.	.	.	24c\JJyy	.	24a-\JJyy	.	24cc\JJyy	.	.	.	.	24a-\JJyy	24cc\JJyy	>	.	.	.
8c\)yy	.	8c\L)yy	.	8c\Lyy	.	8a-|</yy	.	8cc|>\yy	.	8Cyy 8CC'</)yy	8c\L)yy	]	8a-/yy	8cc\yy	.	2ryy	2ryy	.
*	*	*	*	*	*	*	*	*	*	*	*	*	*Xtuplet	*Xtuplet	*	*	*	*
!	!	!	!	!	!	!LO:TUP:b:problem:klamra łukowa	!	!LO:TUP:b:problem:klamra łukowa	!	!	!	!LO:DY:b	!LO:TUP:b:problem:klamra łukowa	!LO:TUP:b:problem:klamra łukowa	!	!	!	!
8ryy	.	8c\Jyy	.	8c'>\Jyy	.	24a-^>/LLyy	.	24cc/LLyy	.	8ryy	8c'>\Jyy	p	24a-/LLyy	24cc\LLyy	.	.	.	.
.	.	.	.	.	.	24g/yy	.	24b-/yy	.	.	.	.	24g/yy	24b-\yy	.	.	.	.
.	.	.	.	.	.	24f/JJyy	.	24a-/JJyy	.	.	.	.	24f/JJyy	24a-\JJyy	.	.	.	.
8C/yy	.	8ryy	.	8ryy	.	8.c/Lyy	.	8.a-^</Lyy	.	8CC'</yy	8ryy	.	8.f/Lyy	8.a-/Lyy	.	.	.	.
8ryy	.	[<8C'</yy	.	8cyy 8C/yy	.	.	.	.	.	8ryy	8C'</yy	.	.	.	.	.	.	.
.	.	.	.	.	.	16B-/Jkyy	.	16g/Jkyy	.	.	.	.	16en/Jkyy	16g/Jkyy	.	.	.	.
=63	=63	=63	=63	=63	=63	=63	=63	=63	=63	=63	=63	=63	=63	=63	=63	=63	=63	=63
*	*	*	*	*	*	*	*	*	*	*^	*	*	*	*	*	*	*	*
!	!LO:DY:b:rj	!	!LO:DY:b	!	!	!	!	!	!LO:DY:b	!	!	!	!	!	!	!LO:DY:b:rj	!	!	!
4.F\yy	p	8C/]yy	p	4.C/yy	.	4.A-/yy	.	4.f/yy	p	4.FF/yy	4.FF\yy	8ryy	.	4f/yy	4f/yy	p	1ryy	1ryy	.
.	.	16.C/LLyy	.	.	.	.	.	.	.	.	.	16.C\LLyy	.	.	.	.	.	.	.
.	.	32C/JJkyy	.	.	.	.	.	.	.	.	.	32C\JJkyy	.	.	.	.	.	.	.
.	.	4F^>\yy	.	.	.	.	.	.	.	.	.	[>4F^>\yy	.	4ryy	4ryy	.	.	.	.
8BB-/yy	.	.	.	16.D-/LLyy	.	16.B-/LLyy	.	16.f/LLyy	.	(>8D-/yy	(<8BB-\yy	.	.	.	.	.	.	.	.
.	.	.	.	32D-/JJkyy	.	32B-/JJkyy	.	32f/JJkyy	.	.	.	.	.	.	.	.	.	.	.
4F\yy	.	8ryy	.	4.C/yy	.	4.A-/yy	.	4.f/yy	.	8C/)yy	4.FF\)yy	8F\L]yy	.	2ryy	2ryy	.	.	.	.
.	.	16.C/LLyy	.	.	.	.	.	.	.	8ryy	.	16.C\Lyy	.	.	.	.	.	.	.
.	.	32C/JJkyy	.	.	.	.	.	.	.	.	.	32C\JJkyy	.	.	.	.	.	.	.
8ryy	.	4F\yy	.	.	.	.	.	.	.	8ryy	.	4F^>\yy	.	.	.	.	.	.	.
8BB-/yy	.	.	.	16.D-/LLyy	.	16.B-/LLyy	.	16.f/LLyy	.	(>8D-/yy	(<8BB-\yy	.	.	.	.	.	.	.	.
.	.	.	.	32D-/JJkyy	.	32B-/JJkyy	.	32f/JJkyy	.	.	.	.	.	.	.	.	.	.	.
*	*	*	*	*	*	*	*	*	*	*v	*v	*	*	*	*	*	*	*	*
=64	=64	=64	=64	=64	=64	=64	=64	=64	=64	=64	=64	=64	=64	=64	=64	=64	=64	=64
8F\	.	8F\	.	8C/L	.	8A-/	.	8f/	.	8FF/	8C/L	.	1r	1r	.	1r	1r	.
8r	.	8r	.	16.C/L	.	8r	.	8r	.	8r	16.C/L	.	.	.	.	.	.	.
.	.	.	.	32C/JJk	.	.	.	.	.	.	32C/JJk	.	.	.	.	.	.	.
*	*	*	*	*rep	*	*rep	*	*rep	*	*	*rep	*	*	*	*	*	*	*
8F\	.	8F\	.	8C/L	.	8A-/	.	8f/	.	8FF/	8C/L	.	.	.	.	.	.	.
8r	.	8r	.	16.C/L	.	8r	.	8r	.	8r	16.C/L	.	.	.	.	.	.	.
.	.	.	.	32C/JJk	.	.	.	.	.	.	32C/JJk	.	.	.	.	.	.	.
*	*	*	*	*Xrep	*	*Xrep	*	*Xrep	*	*	*Xrep	*	*	*	*	*	*	*
*	*	*	*	*rep	*	*rep	*	*rep	*	*	*rep	*	*	*	*	*	*	*
8C/	.	8C/	.	8C/L	.	8A-/	.	8f/	.	8CC/	8C/L	.	.	.	.	.	.	.
8r	.	8r	.	16.C/L	.	8r	.	8r	.	8r	16.C/L	.	.	.	.	.	.	.
.	.	.	.	32C/JJk	.	.	.	.	.	.	32C/JJk	.	.	.	.	.	.	.
*	*	*	*	*Xrep	*	*Xrep	*	*Xrep	*	*	*Xrep	*	*	*	*	*	*	*
*	*	*	*	*rep	*	*	*	*rep	*	*	*rep	*	*	*	*	*	*	*
8AA-/	.	4ryy	.	8C/L	.	8c/	.	8f/	.	8AA- 8AAA-/	8C/L	.	.	.	.	.	.	.
8r	.	.	.	16.C/L	.	8r	.	8r	.	8r	16.C/L	.	.	.	.	.	.	.
.	.	.	.	32C/JJk	.	.	.	.	.	.	32C/JJk	.	.	.	.	.	.	.
*	*	*	*	*Xrep	*	*	*	*Xrep	*	*	*Xrep	*	*	*	*	*	*clefF4	*
=65	=65	=65	=65	=65	=65	=65	=65	=65	=65	=65	=65	=65	=65	=65	=65	=65	=65	=65
!	!	!	!	!	!	!	!	!	!	!	!	!	!	!	!	!	!	!LO:DY:b:t=pp.:rj
1FF	.	1FF;>	.	1C;>	.	1A-;>	.	1f;>	.	4FF 4FFF/	4C/	.	1r	1r;>	.	1C 1FF;>	1c 1F;>	pp
.	.	.	.	.	.	.	.	.	.	4r	4r	.	.	.	.	.	.	.
.	.	.	.	.	.	.	.	.	.	2r;>	2r;>	.	.	.	.	.	.	.
==	==	==	==	==	==	==	==	==	==	==	==	==	==	==	==	==	==	==
*-	*-	*-	*-	*-	*-	*-	*-	*-	*-	*-	*-	*-	*-	*-	*-	*-	*-	*-
!!!system-decoration: ([s1,s2][g1]s7,s8,s9,s10,s11)
!!!RDF**kern: @ = marked note, color=green
!!!RDF**kern: N = linked
!!!RDF**kern: | = vertical stroke
!!!RDF**kern: > = above
!!!RDF**kern: < = below
!!!ENC: Antoni Szymański
!!!END: 2021-08-26
!!!ENC: Marcin Jachim
!!!END: 2021-08-08
